;Generated by Cura LulzBot Edition GCodeWriter Version: 3.2.32
;FLAVOR:Marlin
;TIME:7646
;Filament used: 1.62176m
;Layer height: 0.16
;Generated with Cura_SteamEngine 3.2.32
M82 ;absolute extrusion mode
;This G-Code has been generated specifically for the LulzBot TAZ 6 with standard extruder
M75 ; start GLCD timer
G26 ; clear potential 'probe fail' condition
G21 ; set units to Millimetres
M107 ; disable fans
M420 S0 ; disable previous leveling matrix
G90 ; absolute positioning
M82 ; set extruder to absolute mode
G92 E0 ; set extruder position to 0
M140 S65 ; start bed heating up
M109 R185 ; soften filament before homing Z
G28 ; Home all axis
G1 E-30 F100 ; retract filament
M109 R185 ; wait for extruder to reach wiping temp
G1 X-15 Y100 F3000 ; move above wiper pad
G1 Z1 ; push nozzle into wiper
G1 X-17 Y95 F1000 ; slow wipe
G1 X-17 Y90 F1000 ; slow wipe
G1 X-17 Y85 F1000 ; slow wipe
G1 X-15 Y90 F1000 ; slow wipe
G1 X-17 Y80 F1000 ; slow wipe
G1 X-15 Y95 F1000 ; slow wipe
G1 X-17 Y75 F2000 ; fast wipe
G1 X-15 Y65 F2000 ; fast wipe
G1 X-17 Y70 F2000 ; fast wipe
G1 X-15 Y60 F2000 ; fast wipe
G1 X-17 Y55 F2000 ; fast wipe
G1 X-15 Y50 F2000 ; fast wipe
G1 X-17 Y40 F2000 ; fast wipe
G1 X-15 Y45 F2000 ; fast wipe
G1 X-17 Y35 F2000 ; fast wipe
G1 X-15 Y40 F2000 ; fast wipe
G1 X-17 Y70 F2000 ; fast wipe
G1 X-15 Y30 Z2 F2000 ; fast wipe
G1 X-17 Y35 F2000 ; fast wipe
G1 X-15 Y25 F2000 ; fast wipe
G1 X-17 Y30 F2000 ; fast wipe
G1 X-15 Y25 Z1.5 F1000 ; slow wipe
G1 X-17 Y23 F1000 ; slow wipe
G1 Z10 ; raise extruder
M109 R185 ; wait for extruder to reach probe temp
G1 X-9 Y-9 ; move above first probe point
M204 S100 ; set probing acceleration
G29 ; start auto-leveling sequence
M420 S1 ; activate bed level matrix
M425 Z			     ; use measured Z backlash for compensation
M425 Z F0		     ; turn off measured Z backlash compensation. (if activated in the quality settings, this command will automatically be ignored)
M204 S500 ; restore standard acceleration
G1 X0 Y0 Z15 F5000 ; move up off last probe point
G4 S1 ; pause
M400 ; wait for moves to finish
M117 Heating... ; progress indicator message on LCD
M109 R240 ; wait for extruder to reach printing temp
M190 S65 ; wait for bed to reach printing temp
G1 Z2 E0 F75 ; prime tiny bit of filament into the nozzle
M117 TAZ 6 Printing... ; progress indicator message on LCD

M221 S100
;LAYER_COUNT:299
;LAYER:0
M107
G0 F1750 X25.845 Y129.559 Z0.424
;TYPE:SKIRT
G1 F600 X26.482 Y129.476 E0.01921
G1 X50.655 Y127.972 E0.7436
G1 X51.174 Y127.968 E0.75912
G1 X53.288 Y128.068 E0.82242
G1 X53.903 Y128.138 E0.84093
G1 X55.725 Y128.465 E0.89629
G1 X56.284 Y128.6 E0.91349
G1 X58.063 Y129.148 E0.96917
G1 X58.59 Y129.345 E0.986
G1 X60.165 Y130.043 E1.03752
G1 X60.639 Y130.286 E1.05345
G1 X62.15 Y131.17 E1.10581
G1 X62.612 Y131.478 E1.12242
G1 X64.034 Y132.551 E1.1757
G1 X64.516 Y132.969 E1.19478
G1 X66.141 Y134.579 E1.2632
G1 X66.586 Y135.088 E1.28342
G1 X67.834 Y136.738 E1.34529
G1 X68.175 Y137.255 E1.36382
G1 X68.735 Y138.24 E1.3977
G1 X69.004 Y138.795 E1.41615
G1 X69.2 Y139.379 E1.43458
G1 X69.339 Y140.19 E1.45918
G1 X69.388 Y140.773 E1.47668
G1 X69.4 Y141.389 E1.49511
G1 X69.332 Y142.002 E1.51356
G1 X69.173 Y142.638 E1.53316
G1 X69.034 Y143.066 E1.54662
G1 X68.806 Y143.639 E1.56507
G1 X68.476 Y144.222 E1.5851
G1 X67.382 Y145.874 E1.64437
G1 X67.035 Y146.335 E1.66162
G1 X65.909 Y147.654 E1.71349
G1 X65.497 Y148.08 E1.73122
G1 X63.996 Y149.449 E1.79198
G1 X63.522 Y149.828 E1.81013
G1 X62 Y150.895 E1.86572
G1 X61.447 Y151.229 E1.88505
G1 X59.417 Y152.274 E1.95333
G1 X58.923 Y152.494 E1.96951
G1 X57.786 Y152.924 E2.00586
G1 X57.352 Y153.065 E2.01951
G1 X55.733 Y153.505 E2.06969
G1 X55.16 Y153.623 E2.08719
G1 X53.093 Y153.919 E2.14964
G1 X52.652 Y153.961 E2.16289
G1 X51.813 Y154.002 E2.18801
G1 X51.293 Y153.999 E2.20357
G1 X26.49 Y152.493 E2.94676
G1 X25.879 Y152.416 E2.96518
G1 X25.567 Y152.345 E2.97475
G1 X25.089 Y152.219 E2.98953
G1 X24.505 Y152.024 E3.00795
G1 X23.951 Y151.754 E3.02638
G1 X23.569 Y151.513 E3.03989
G1 X22.984 Y151.102 E3.06127
G1 X22.504 Y150.716 E3.07969
G1 X22.078 Y150.27 E3.09814
G1 X21.778 Y149.873 E3.11302
G1 X21.512 Y149.479 E3.12724
G1 X21.201 Y148.947 E3.14567
G1 X20.94 Y148.314 E3.16615
G1 X20.784 Y147.843 E3.18099
G1 X20.629 Y147.247 E3.19941
G1 X20.543 Y146.35 E3.22636
G1 X20.543 Y135.621 E3.54725
G1 X20.583 Y135.006 E3.56568
G1 X20.783 Y134.13 E3.59256
G1 X20.939 Y133.658 E3.60743
G1 X21.17 Y133.087 E3.62585
G1 X21.473 Y132.551 E3.64426
G1 X21.711 Y132.218 E3.65651
G1 X22.151 Y131.657 E3.67783
G1 X22.562 Y131.197 E3.69628
G1 X23.166 Y130.696 E3.71975
G1 X23.359 Y130.561 E3.7268
G1 X23.886 Y130.241 E3.74524
G1 X24.555 Y129.955 E3.767
G1 X25.25 Y129.719 E3.78895
G1 X25.845 Y129.559 E3.80738
G0 F1750 X25.974 Y130.044
G1 F600 X26.513 Y129.975 E3.82363
G1 X50.686 Y128.471 E4.54801
G1 X51.151 Y128.468 E4.56192
G1 X53.265 Y128.568 E4.62522
G1 X53.815 Y128.63 E4.64177
G1 X55.637 Y128.957 E4.69714
G1 X56.137 Y129.078 E4.71252
G1 X57.916 Y129.626 E4.7682
G1 X58.387 Y129.802 E4.78324
G1 X59.962 Y130.5 E4.83476
G1 X60.386 Y130.718 E4.84902
G1 X61.897 Y131.602 E4.90138
G1 X62.311 Y131.877 E4.91624
G1 X63.733 Y132.95 E4.96952
G1 X64.164 Y133.324 E4.98659
G1 X65.789 Y134.934 E5.05501
G1 X66.188 Y135.389 E5.07311
G1 X67.436 Y137.039 E5.13498
G1 X67.741 Y137.502 E5.15156
G1 X68.301 Y138.487 E5.18545
G1 X68.553 Y139.013 E5.2029
G1 X68.732 Y139.567 E5.22031
G1 X68.841 Y140.232 E5.24047
G1 X68.89 Y140.815 E5.25796
G1 X68.899 Y141.398 E5.2754
G1 X68.828 Y141.976 E5.29282
G1 X68.697 Y142.484 E5.30851
G1 X68.558 Y142.912 E5.32197
G1 X68.341 Y143.452 E5.33938
G1 X68.059 Y143.946 E5.35639
G1 X66.965 Y145.598 E5.41565
G1 X66.654 Y146.01 E5.43109
G1 X65.528 Y147.329 E5.48296
G1 X65.16 Y147.71 E5.4988
G1 X63.659 Y149.079 E5.55956
G1 X63.235 Y149.419 E5.57582
G1 X61.713 Y150.486 E5.63141
G1 X61.218 Y150.785 E5.64871
G1 X59.188 Y151.83 E5.71699
G1 X58.746 Y152.026 E5.73145
G1 X57.609 Y152.456 E5.76781
G1 X57.221 Y152.582 E5.78001
G1 X55.602 Y153.022 E5.83019
G1 X55.089 Y153.128 E5.84586
G1 X53.022 Y153.424 E5.90831
G1 X52.627 Y153.462 E5.92018
G1 X51.788 Y153.503 E5.9453
G1 X51.323 Y153.5 E5.95921
G1 X26.52 Y151.994 E6.7024
G1 X25.695 Y151.862 E6.72739
G1 X25.217 Y151.736 E6.74218
G1 X24.665 Y151.549 E6.75961
G1 X24.143 Y151.288 E6.77706
G1 X23.857 Y151.104 E6.78724
G1 X23.272 Y150.693 E6.80862
G1 X22.819 Y150.326 E6.82606
G1 X22.421 Y149.9 E6.84349
G1 X22.193 Y149.593 E6.85493
G1 X21.927 Y149.199 E6.86915
G1 X21.634 Y148.695 E6.88658
G1 X21.415 Y148.157 E6.90396
G1 X21.259 Y147.686 E6.9188
G1 X21.114 Y147.122 E6.93621
G1 X21.043 Y146.35 E6.9594
G1 X21.043 Y135.621 E7.28029
G1 X21.083 Y135.04 E7.29771
G1 X21.258 Y134.287 E7.32083
G1 X21.414 Y133.815 E7.3357
G1 X21.634 Y133.276 E7.35311
G1 X21.926 Y132.772 E7.37053
G1 X22.105 Y132.526 E7.37963
G1 X22.545 Y131.965 E7.40096
G1 X22.935 Y131.532 E7.41838
G1 X23.453 Y131.105 E7.43846
G1 X23.646 Y130.97 E7.44551
G1 X24.145 Y130.67 E7.46292
G1 X24.715 Y130.429 E7.48143
G1 X25.41 Y130.193 E7.50338
G1 X25.974 Y130.044 E7.52083
G0 F1750 X26.101 Y130.528
G1 F600 X26.544 Y130.474 E7.53418
G1 X50.717 Y128.97 E8.25856
G1 X51.127 Y128.967 E8.27082
G1 X53.241 Y129.067 E8.33412
G1 X53.726 Y129.122 E8.34872
G1 X55.548 Y129.449 E8.40408
G1 X55.99 Y129.556 E8.41769
G1 X57.769 Y130.104 E8.47336
G1 X58.184 Y130.26 E8.48662
G1 X59.759 Y130.958 E8.53815
G1 X60.134 Y131.149 E8.55073
G1 X61.645 Y132.033 E8.60309
G1 X62.01 Y132.277 E8.61622
G1 X63.432 Y133.35 E8.6695
G1 X63.812 Y133.679 E8.68454
G1 X65.437 Y135.289 E8.75295
G1 X65.789 Y135.691 E8.76893
G1 X67.037 Y137.341 E8.83081
G1 X67.306 Y137.75 E8.84545
G1 X67.866 Y138.735 E8.87934
G1 X68.101 Y139.229 E8.8957
G1 X68.262 Y139.752 E8.91207
G1 X68.343 Y140.274 E8.92787
G1 X68.392 Y140.857 E8.94536
G1 X68.398 Y141.404 E8.96173
G1 X68.324 Y141.947 E8.97812
G1 X68.222 Y142.329 E8.98994
G1 X68.083 Y142.757 E9.0034
G1 X67.876 Y143.264 E9.01978
G1 X67.643 Y143.67 E9.03378
G1 X66.549 Y145.322 E9.09304
G1 X66.274 Y145.686 E9.10669
G1 X65.148 Y147.005 E9.15856
G1 X64.823 Y147.341 E9.17254
G1 X63.322 Y148.71 E9.2333
G1 X62.948 Y149.01 E9.24764
G1 X61.426 Y150.077 E9.30323
G1 X60.989 Y150.34 E9.31849
G1 X58.959 Y151.385 E9.38677
G1 X58.57 Y151.559 E9.39952
G1 X57.433 Y151.989 E9.43588
G1 X57.089 Y152.1 E9.44669
G1 X55.47 Y152.54 E9.49686
G1 X55.019 Y152.633 E9.51064
G1 X52.952 Y152.929 E9.57309
G1 X52.603 Y152.963 E9.58358
G1 X51.764 Y153.004 E9.6087
G1 X51.354 Y153.001 E9.62096
G1 X26.551 Y151.495 E10.36416
G1 X25.822 Y151.378 E10.38624
G1 X25.344 Y151.252 E10.40102
G1 X24.826 Y151.074 E10.41741
G1 X24.144 Y150.694 E10.44076
G1 X23.559 Y150.283 E10.46214
G1 X23.136 Y149.937 E10.47848
G1 X22.607 Y149.313 E10.50295
G1 X22.341 Y148.919 E10.51717
G1 X22.069 Y148.445 E10.53352
G1 X21.889 Y148 E10.54787
G1 X21.733 Y147.529 E10.56271
G1 X21.599 Y146.998 E10.57909
G1 X21.543 Y146.35 E10.59854
G1 X21.543 Y135.621 E10.91944
G1 X21.583 Y135.075 E10.93581
G1 X21.732 Y134.444 E10.9552
G1 X21.888 Y133.972 E10.97007
G1 X22.098 Y133.466 E10.98645
G1 X22.498 Y132.835 E11.0088
G1 X22.938 Y132.274 E11.03012
G1 X23.307 Y131.869 E11.04651
G1 X23.74 Y131.515 E11.06324
G1 X23.933 Y131.38 E11.07028
G1 X24.403 Y131.1 E11.08664
G1 X24.876 Y130.902 E11.10198
G1 X25.571 Y130.666 E11.12393
G1 X26.101 Y130.528 E11.14031
G0 F1750 X26.226 Y131.014
G1 F600 X26.575 Y130.973 E11.15082
G1 X50.748 Y129.469 E11.87521
G1 X51.104 Y129.467 E11.88585
G1 X53.218 Y129.567 E11.94915
G1 X53.638 Y129.614 E11.96179
G1 X55.46 Y129.941 E12.01716
G1 X55.843 Y130.034 E12.02894
G1 X57.622 Y130.582 E12.08462
G1 X57.982 Y130.717 E12.09612
G1 X59.557 Y131.415 E12.14764
G1 X59.881 Y131.581 E12.15853
G1 X61.392 Y132.465 E12.21089
G1 X61.709 Y132.676 E12.22228
G1 X63.131 Y133.749 E12.27556
G1 X63.46 Y134.034 E12.28858
G1 X65.085 Y135.644 E12.35699
G1 X65.39 Y135.992 E12.37083
G1 X66.638 Y137.642 E12.43271
G1 X66.871 Y137.997 E12.44541
G1 X67.431 Y138.982 E12.4793
G1 X67.648 Y139.443 E12.49454
G1 X67.789 Y139.932 E12.50976
G1 X67.845 Y140.316 E12.52137
G1 X67.894 Y140.899 E12.53886
G1 X67.896 Y141.408 E12.55409
G1 X67.819 Y141.912 E12.56934
G1 X67.746 Y142.175 E12.5775
G1 X67.607 Y142.603 E12.59096
G1 X67.412 Y143.074 E12.60621
G1 X67.226 Y143.393 E12.61725
G1 X66.132 Y145.045 E12.67651
G1 X65.894 Y145.361 E12.68834
G1 X64.768 Y146.68 E12.74021
G1 X64.486 Y146.971 E12.75233
G1 X62.985 Y148.34 E12.81309
G1 X62.661 Y148.6 E12.82552
G1 X61.139 Y149.667 E12.88111
G1 X60.761 Y149.896 E12.89433
G1 X58.731 Y150.941 E12.96262
G1 X58.393 Y151.091 E12.97368
G1 X57.256 Y151.521 E13.01003
G1 X56.958 Y151.617 E13.0194
G1 X55.339 Y152.057 E13.06958
G1 X54.948 Y152.138 E13.08152
G1 X52.881 Y152.434 E13.14397
G1 X52.579 Y152.463 E13.15305
G1 X51.74 Y152.504 E13.17817
G1 X51.384 Y152.502 E13.18882
G1 X26.581 Y150.996 E13.93201
G1 X25.95 Y150.895 E13.95112
G1 X25.472 Y150.769 E13.96591
G1 X24.991 Y150.601 E13.98115
G1 X24.432 Y150.285 E14.00035
G1 X23.847 Y149.874 E14.02173
G1 X23.454 Y149.55 E14.03697
G1 X23.021 Y149.034 E14.05712
G1 X22.755 Y148.64 E14.07133
G1 X22.504 Y148.196 E14.08659
G1 X22.364 Y147.843 E14.09795
G1 X22.208 Y147.372 E14.11279
G1 X22.086 Y146.877 E14.12803
G1 X22.043 Y146.35 E14.14385
G1 X22.043 Y135.621 E14.46474
G1 X22.083 Y135.113 E14.47998
G1 X22.207 Y134.601 E14.49574
G1 X22.363 Y134.129 E14.5106
G1 X22.56 Y133.659 E14.52585
G1 X22.892 Y133.143 E14.5442
G1 X23.332 Y132.582 E14.56552
G1 X23.677 Y132.207 E14.58076
G1 X24.026 Y131.925 E14.59418
G1 X24.219 Y131.79 E14.60123
G1 X24.658 Y131.531 E14.61647
G1 X25.037 Y131.376 E14.62872
G1 X25.732 Y131.14 E14.65067
G1 X26.226 Y131.014 E14.66592
G0 F1750 X26.348 Y131.501
G1 F600 X26.606 Y131.472 E14.67368
G1 X50.779 Y129.968 E15.39807
G1 X51.08 Y129.966 E15.40707
G1 X53.194 Y130.066 E15.47037
G1 X53.55 Y130.106 E15.48108
G1 X55.372 Y130.433 E15.53645
G1 X55.696 Y130.512 E15.54642
G1 X57.475 Y131.06 E15.60209
G1 X57.779 Y131.174 E15.61181
G1 X59.354 Y131.872 E15.66333
G1 X59.629 Y132.012 E15.67256
G1 X61.14 Y132.896 E15.72492
G1 X61.407 Y133.075 E15.73453
G1 X62.829 Y134.148 E15.78781
G1 X63.109 Y134.389 E15.79886
G1 X64.734 Y135.999 E15.86728
G1 X64.991 Y136.294 E15.87898
G1 X66.239 Y137.944 E15.94086
G1 X66.437 Y138.244 E15.95161
G1 X66.997 Y139.229 E15.98549
G1 X67.193 Y139.654 E15.99949
G1 X67.314 Y140.107 E16.01352
G1 X67.346 Y140.358 E16.02108
G1 X67.395 Y140.941 E16.03858
G1 X67.395 Y141.409 E16.05258
G1 X67.271 Y142.02 E16.07123
G1 X67.132 Y142.448 E16.08469
G1 X66.949 Y142.88 E16.09872
G1 X66.809 Y143.117 E16.10695
G1 X65.715 Y144.769 E16.16621
G1 X65.514 Y145.036 E16.17621
G1 X64.388 Y146.355 E16.22808
G1 X64.149 Y146.602 E16.23836
G1 X62.648 Y147.971 E16.29912
G1 X62.374 Y148.191 E16.30963
G1 X60.852 Y149.258 E16.36522
G1 X60.532 Y149.451 E16.3764
G1 X58.502 Y150.496 E16.44468
G1 X58.216 Y150.623 E16.45404
G1 X57.079 Y151.053 E16.4904
G1 X56.827 Y151.135 E16.49833
G1 X55.208 Y151.575 E16.5485
G1 X54.877 Y151.643 E16.55861
G1 X52.81 Y151.939 E16.62106
G1 X52.554 Y151.964 E16.62876
G1 X51.715 Y152.005 E16.65388
G1 X51.414 Y152.003 E16.66288
G1 X26.611 Y150.497 E17.40608
G1 X26.077 Y150.411 E17.42225
G1 X25.599 Y150.285 E17.43704
G1 X25.158 Y150.128 E17.45104
G1 X24.719 Y149.876 E17.46618
G1 X24.134 Y149.465 E17.48756
G1 X23.775 Y149.164 E17.50157
G1 X23.436 Y148.754 E17.51748
G1 X23.17 Y148.36 E17.5317
G1 X22.942 Y147.95 E17.54573
G1 X22.838 Y147.686 E17.55422
G1 X22.682 Y147.215 E17.56906
G1 X22.574 Y146.759 E17.58308
G1 X22.543 Y146.35 E17.59534
G1 X22.543 Y135.621 E17.91624
G1 X22.583 Y135.154 E17.93025
G1 X22.682 Y134.758 E17.94246
G1 X22.838 Y134.286 E17.95733
G1 X23.022 Y133.855 E17.97135
G1 X23.285 Y133.452 E17.98574
G1 X23.725 Y132.891 E18.00706
G1 X24.045 Y132.548 E18.02109
G1 X24.313 Y132.335 E18.03133
G1 X24.506 Y132.2 E18.03838
G1 X24.911 Y131.965 E18.05238
G1 X25.198 Y131.849 E18.06164
G1 X25.893 Y131.613 E18.08359
G1 X26.348 Y131.501 E18.09761
G0 F1750 X26.054 Y132.086
G1 F600 X26.637 Y131.971 E18.11538
G1 X50.81 Y130.467 E18.83976
G1 X51.056 Y130.466 E18.84712
G1 X53.17 Y130.566 E18.91042
G1 X53.461 Y130.598 E18.91917
G1 X55.283 Y130.925 E18.97454
G1 X55.548 Y130.99 E18.9827
G1 X57.327 Y131.538 E19.03837
G1 X57.577 Y131.631 E19.04635
G1 X59.152 Y132.329 E19.09788
G1 X59.376 Y132.444 E19.10541
G1 X60.887 Y133.328 E19.15777
G1 X61.106 Y133.474 E19.16564
G1 X62.528 Y134.547 E19.21892
G1 X62.757 Y134.745 E19.22797
G1 X64.382 Y136.355 E19.29639
G1 X64.593 Y136.596 E19.30597
G1 X65.841 Y138.246 E19.36784
G1 X66.002 Y138.491 E19.37661
G1 X66.562 Y139.476 E19.4105
G1 X66.736 Y139.862 E19.42316
G1 X66.848 Y140.4 E19.4396
G1 X66.897 Y140.983 E19.4571
G1 X66.893 Y141.406 E19.46975
G1 X66.795 Y141.866 E19.48382
G1 X66.656 Y142.294 E19.49728
G1 X66.392 Y142.841 E19.51544
G1 X65.298 Y144.493 E19.5747
G1 X65.133 Y144.712 E19.58291
G1 X64.007 Y146.031 E19.63477
G1 X63.812 Y146.232 E19.64315
G1 X62.311 Y147.601 E19.70391
G1 X62.087 Y147.781 E19.71251
G1 X60.565 Y148.848 E19.7681
G1 X60.303 Y149.006 E19.77725
G1 X58.273 Y150.051 E19.84554
G1 X58.039 Y150.156 E19.85321
G1 X56.902 Y150.586 E19.88956
G1 X56.696 Y150.652 E19.89603
G1 X55.077 Y151.092 E19.94621
G1 X54.806 Y151.148 E19.95449
G1 X52.739 Y151.444 E20.01694
G1 X52.53 Y151.464 E20.02322
G1 X51.691 Y151.505 E20.04834
G1 X51.445 Y151.504 E20.0557
G1 X26.642 Y149.998 E20.7989
G1 X26.204 Y149.928 E20.81216
G1 X25.726 Y149.802 E20.82695
G1 X25.329 Y149.656 E20.8396
G1 X25.007 Y149.467 E20.85077
G1 X24.422 Y149.056 E20.87215
G1 X24.099 Y148.781 E20.88484
G1 X23.85 Y148.474 E20.89666
G1 X23.584 Y148.08 E20.91088
G1 X23.313 Y147.528 E20.92927
G1 X23.157 Y147.057 E20.94411
G1 X23.062 Y146.644 E20.95678
G1 X23.043 Y146.35 E20.9656
G1 X23.043 Y135.621 E21.28649
G1 X23.083 Y135.199 E21.29916
G1 X23.157 Y134.915 E21.30794
G1 X23.313 Y134.443 E21.32281
G1 X23.483 Y134.055 E21.33548
G1 X23.679 Y133.76 E21.34607
G1 X24.119 Y133.199 E21.3674
G1 X24.41 Y132.892 E21.38005
G1 X24.599 Y132.744 E21.38723
G1 X24.792 Y132.609 E21.39427
G1 X25.161 Y132.4 E21.40696
G1 X25.359 Y132.322 E21.41332
G1 X26.054 Y132.086 E21.43527
G0 F1750 X26.214 Y132.56
G1 F600 X26.668 Y132.47 E21.44912
