;This Gcode has been generated specifically for the LulzBot Mini
;Basic settings: Layer height: 0.35 Walls: 0.6 Fill: 30
;Filament Diameter: 2.9
;Nozzle Size: 0.6
G21                          ; metric values
G90                          ; absolute positioning
M82                          ; set extruder to absolute mode
M107                         ; start with the fan off
G92 E0                       ; set extruder position to 0
M140 S40; get bed heating up
G28                          ; home all
M907 X500                    ; reduce extruder torque for safety
M109 S160                    ; set to cleaning temp and wait
G1 Z150 E-30 F55             ; suck up XXmm of filament
M109 S170                    ; heat up rest of way
G1 X45 Y174 F11520           ; move behind scraper
G1 Z0  F1200                 ; CRITICAL: set Z to height of top of scraper
G1 X45 Y174 Z-.5 F4000       ; wiping ; plunge into wipe pad
G1 X55 Y172 Z-.5 F4000       ; wiping
G1 X45 Y174 Z0 F4000         ; wiping
G1 X55 Y172 F4000            ; wiping
G1 X45 Y174 F4000            ; wiping
G1 X55 Y172 F4000            ; wiping
G1 X45 Y174 F4000            ; wiping
G1 X55 Y172 F4000            ; wiping
G1 X60 Y174 F4000            ; wiping
G1 X80 Y172 F4000            ; wiping
G1 X60 Y174 F4000            ; wiping
G1 X80 Y172 F4000            ; wiping
G1 X60 Y174 F4000            ; wiping
G1 X90 Y172 F4000            ; wiping
G1 X80 Y174 F4000            ; wiping
G1 X100 Y172 F4000           ; wiping
G1 X80 Y174 F4000            ; wiping
G1 X100 Y172 F4000           ; wiping
G1 X80 Y174 F4000            ; wiping
G1 X100 Y172 F4000           ; wiping
G1 X110 Y174 F4000           ; wiping
G1 X100 Y172 F4000           ; wiping
G1 X110 Y174 F4000           ; wiping
G1 X100 Y172 F4000           ; wiping
G1 X110 Y174 F4000           ; wiping
G1 X115 Y172 Z-0.5 F1000     ; wipe slower and bury noz in cleanish area
G1 Z10                       ; raise z
G28 X0 Y0                    ; home x and y
M109 S180                    ; set to probing temp
M204 S300                    ; Set probing acceleration
G29                          ; Probe
M204 S2000                   ; Restore standard acceleration
G1 X5 Y15 Z10 F5000          ; get out the way
G4 S1                        ; pause
M400                         ; clear buffer
M109 S235    ; set extruder temp and wait
G1 Z2 E0 F45                 ; extrude filament back into nozzle
M140 S40; get bed temping up during first layer

;Layer count: 25
;LAYER:0
M107
G0 F10500 X15.534 Y13.512 Z0.300
G0 X15.915 Y13.227
;TYPE:SKIRT
G1 F480 X16.836 Y12.519 E0.03166
G1 X17.924 Y12.070 E0.06373
G1 X18.352 Y11.890 E0.07639
G1 X19.761 Y11.703 E0.11512
G1 X27.798 Y11.700 E0.33414
G1 X28.116 Y11.701 E0.34280
G1 X29.403 Y11.765 E0.37792
G1 X30.759 Y11.966 E0.41528
G1 X32.118 Y12.303 E0.45343
G1 X33.353 Y12.742 E0.48915
G1 X33.560 Y12.825 E0.49523
G1 X34.743 Y13.385 E0.53090
G1 X35.920 Y14.090 E0.56828
G1 X37.046 Y14.921 E0.60642
G1 X38.112 Y15.883 E0.64555
G1 X39.036 Y16.902 E0.68304
G1 X39.700 Y17.792 E0.71330
G1 X39.700 Y17.782 E0.71357
G1 X39.831 Y16.795 E0.74070
G1 X39.895 Y16.348 E0.75301
G1 X40.348 Y15.249 E0.78540
G1 X40.526 Y14.827 E0.79788
G1 X41.249 Y13.886 E0.83022
G1 X41.534 Y13.512 E0.84303
G1 X41.915 Y13.227 E0.85600
G1 X42.836 Y12.519 E0.88766
G1 X43.924 Y12.070 E0.91973
G1 X44.352 Y11.890 E0.93239
G1 X45.761 Y11.703 E0.97112
G1 X53.798 Y11.700 E1.19014
G1 X54.116 Y11.701 E1.19880
G1 X55.403 Y11.765 E1.23392
G1 X56.759 Y11.966 E1.27128
G1 X58.118 Y12.303 E1.30943
G1 X59.353 Y12.742 E1.34515
G1 X59.560 Y12.825 E1.35123
G1 X60.743 Y13.385 E1.38690
G1 X61.920 Y14.090 E1.42428
G1 X63.046 Y14.921 E1.46242
G1 X64.112 Y15.883 E1.50155
G1 X65.036 Y16.902 E1.53904
G1 X65.700 Y17.792 E1.56930
G1 X65.700 Y17.782 E1.56957
G1 X65.831 Y16.795 E1.59670
G1 X65.895 Y16.348 E1.60901
G1 X66.348 Y15.249 E1.64140
G1 X66.526 Y14.827 E1.65388
G1 X67.249 Y13.886 E1.68622
G1 X67.534 Y13.512 E1.69903
G1 X67.915 Y13.227 E1.71200
G1 X68.836 Y12.519 E1.74366
G1 X69.924 Y12.070 E1.77573
G1 X70.352 Y11.890 E1.78839
G1 X71.761 Y11.703 E1.82712
G1 X79.798 Y11.700 E2.04614
G1 X80.116 Y11.701 E2.05480
G1 X81.402 Y11.765 E2.08989
G1 X82.758 Y11.966 E2.12725
G1 X84.117 Y12.303 E2.16540
G1 X85.352 Y12.742 E2.20112
G1 X85.559 Y12.825 E2.20720
G1 X86.742 Y13.385 E2.24287
G1 X87.919 Y14.090 E2.28026
G1 X89.045 Y14.921 E2.31839
G1 X90.111 Y15.883 E2.35752
G1 X91.035 Y16.902 E2.39501
G1 X91.700 Y17.793 E2.42531
G1 X91.700 Y17.785 E2.42552
G1 X91.829 Y16.797 E2.45268
G1 X91.894 Y16.348 E2.46504
G1 X92.347 Y15.249 E2.49743
G1 X92.525 Y14.827 E2.50992
G1 X93.248 Y13.886 E2.54225
G1 X93.522 Y13.527 E2.55456
G1 X94.837 Y12.519 E2.59971
G1 X95.943 Y12.061 E2.63234
G1 X95.943 Y12.062 E2.63236
G1 X96.351 Y11.890 E2.64443
G1 X97.761 Y11.703 E2.68319
G1 X105.798 Y11.700 E2.90221
G1 X106.116 Y11.701 E2.91087
G1 X107.402 Y11.765 E2.94596
G1 X108.758 Y11.966 E2.98332
G1 X110.117 Y12.303 E3.02148
G1 X111.352 Y12.742 E3.05719
G1 X111.559 Y12.825 E3.06327
G1 X112.742 Y13.385 E3.09894
G1 X113.919 Y14.090 E3.13633
G1 X115.045 Y14.921 E3.17446
G1 X116.111 Y15.883 E3.21359
G1 X117.035 Y16.902 E3.25108
G1 X117.700 Y17.793 E3.28138
G1 X117.700 Y17.785 E3.28160
G1 X117.829 Y16.797 E3.30875
G1 X117.894 Y16.348 E3.32111
G1 X118.347 Y15.249 E3.35351
G1 X118.525 Y14.827 E3.36599
G1 X119.248 Y13.886 E3.39833
G1 X119.522 Y13.527 E3.41063
G1 X120.837 Y12.519 E3.45578
G1 X121.943 Y12.061 E3.48841
G1 X121.943 Y12.062 E3.48843
G1 X122.351 Y11.890 E3.50050
G1 X123.761 Y11.703 E3.53926
G1 X131.798 Y11.700 E3.75828
G1 X132.116 Y11.701 E3.76695
G1 X133.402 Y11.765 E3.80203
G1 X134.758 Y11.966 E3.83939
G1 X136.117 Y12.303 E3.87755
G1 X137.352 Y12.742 E3.91326
G1 X137.559 Y12.825 E3.91934
G1 X138.742 Y13.385 E3.95501
G1 X139.919 Y14.090 E3.99240
G1 X141.045 Y14.921 E4.03053
G1 X142.111 Y15.883 E4.06966
G1 X143.035 Y16.902 E4.10715
G1 X143.872 Y18.024 E4.14530
G1 X144.596 Y19.226 E4.18354
G1 X145.199 Y20.493 E4.22177
G1 X145.675 Y21.813 E4.26001
G1 X146.020 Y23.173 E4.29825
G1 X146.235 Y24.594 E4.33741
G1 X146.298 Y25.891 E4.37280
G1 X146.300 Y33.806 E4.58849
G1 X146.296 Y34.254 E4.60070
G1 X146.111 Y35.640 E4.63881
G1 X145.575 Y36.936 E4.67703
G1 X145.340 Y37.347 E4.68993
G1 X144.475 Y38.475 E4.72867
G1 X143.524 Y39.205 E4.76134
G1 X143.160 Y39.484 E4.77384
G1 X142.076 Y39.931 E4.80579
G1 X141.646 Y40.112 E4.81850
G1 X140.237 Y40.297 E4.85723
G1 X140.199 Y40.297 E4.85826
G1 X141.045 Y40.921 E4.88691
G1 X142.111 Y41.883 E4.92604
G1 X143.035 Y42.902 E4.96353
G1 X143.872 Y44.024 E5.00167
G1 X144.596 Y45.226 E5.03991
G1 X145.199 Y46.493 E5.07815
G1 X145.675 Y47.813 E5.11639
G1 X146.020 Y49.173 E5.15463
G1 X146.235 Y50.594 E5.19379
G1 X146.298 Y51.891 E5.22918
G1 X146.300 Y59.806 E5.44487
G1 X146.296 Y60.254 E5.45708
G1 X146.111 Y61.640 E5.49519
G1 X145.575 Y62.936 E5.53340
G1 X145.340 Y63.347 E5.54631
G1 X144.475 Y64.475 E5.58504
G1 X143.524 Y65.205 E5.61771
G1 X143.160 Y65.484 E5.63021
G1 X142.076 Y65.931 E5.66217
G1 X141.646 Y66.112 E5.67488
G1 X140.237 Y66.297 E5.71361
G1 X140.199 Y66.297 E5.71464
G1 X141.045 Y66.921 E5.74329
G1 X142.111 Y67.883 E5.78242
G1 X143.035 Y68.902 E5.81990
G1 X143.872 Y70.024 E5.85805
G1 X144.596 Y71.226 E5.89629
G1 X145.199 Y72.493 E5.93453
G1 X145.675 Y73.813 E5.97277
G1 X146.020 Y75.173 E6.01100
G1 X146.235 Y76.594 E6.05017
G1 X146.298 Y77.891 E6.08555
G1 X146.300 Y85.806 E6.30125
G1 X146.296 Y86.254 E6.31346
G1 X146.111 Y87.638 E6.35151
G1 X145.576 Y88.935 E6.38974
G1 X145.340 Y89.349 E6.40273
G1 X144.474 Y90.475 E6.44144
G1 X143.524 Y91.204 E6.47407
G1 X143.160 Y91.483 E6.48657
G1 X142.076 Y91.930 E6.51852
G1 X141.648 Y92.110 E6.53118
G1 X140.239 Y92.297 E6.56991
G1 X140.201 Y92.297 E6.57095
G1 X141.045 Y92.920 E6.59953
G1 X142.111 Y93.882 E6.63866
G1 X143.035 Y94.901 E6.67615
G1 X143.872 Y96.023 E6.71429
G1 X144.596 Y97.225 E6.75253
G1 X145.199 Y98.492 E6.79077
G1 X145.675 Y99.812 E6.82901
G1 X146.020 Y101.172 E6.86725
G1 X146.235 Y102.593 E6.90641
G1 X146.298 Y103.892 E6.94185
G1 X146.300 Y111.806 E7.15752
G1 X146.296 Y112.254 E7.16973
G1 X146.111 Y113.638 E7.20778
G1 X145.576 Y114.935 E7.24601
G1 X145.340 Y115.349 E7.25900
G1 X144.474 Y116.475 E7.29771
G1 X143.524 Y117.204 E7.33034
G1 X143.160 Y117.483 E7.34284
G1 X142.076 Y117.930 E7.37479
G1 X141.648 Y118.110 E7.38745
G1 X140.239 Y118.297 E7.42618
G1 X140.201 Y118.297 E7.42722
G1 X141.045 Y118.920 E7.45580
G1 X142.111 Y119.882 E7.49493
G1 X143.035 Y120.901 E7.53242
G1 X143.872 Y122.023 E7.57057
G1 X144.596 Y123.225 E7.60880
G1 X145.199 Y124.492 E7.64704
G1 X145.675 Y125.812 E7.68528
G1 X146.020 Y127.172 E7.72352
G1 X146.235 Y128.593 E7.76268
G1 X146.298 Y129.892 E7.79812
G1 X146.300 Y137.806 E8.01379
G1 X146.296 Y138.254 E8.02600
G1 X146.111 Y139.638 E8.06405
G1 X145.576 Y140.935 E8.10228
G1 X145.340 Y141.349 E8.11527
G1 X144.474 Y142.475 E8.15398
G1 X143.524 Y143.204 E8.18661
G1 X143.160 Y143.483 E8.19911
G1 X142.076 Y143.930 E8.23106
G1 X141.648 Y144.110 E8.24372
G1 X140.239 Y144.297 E8.28245
G1 X125.784 Y144.300 E8.67637
G1 X124.284 Y144.103 E8.71760
G1 X123.820 Y144.034 E8.73038
G1 X121.878 Y143.230 E8.78766
G1 X120.118 Y141.898 E8.84781
G1 X119.492 Y141.083 E8.87581
G1 X119.340 Y141.349 E8.88416
G1 X118.474 Y142.475 E8.92287
G1 X117.524 Y143.204 E8.95551
G1 X117.160 Y143.483 E8.96800
G1 X116.076 Y143.930 E8.99996
G1 X115.648 Y144.110 E9.01261
G1 X114.239 Y144.297 E9.05134
G1 X99.784 Y144.300 E9.44526
G1 X98.284 Y144.103 E9.48649
G1 X97.820 Y144.034 E9.49927
G1 X95.878 Y143.230 E9.55655
G1 X94.118 Y141.898 E9.61670
G1 X93.492 Y141.083 E9.64470
G1 X93.340 Y141.349 E9.65305
G1 X92.474 Y142.475 E9.69176
G1 X91.524 Y143.204 E9.72440
G1 X91.160 Y143.483 E9.73689
G1 X90.076 Y143.930 E9.76885
G1 X89.648 Y144.110 E9.78150
G1 X88.239 Y144.297 E9.82024
G1 X73.784 Y144.300 E10.21415
G1 X72.284 Y144.102 E10.25538
G1 X71.821 Y144.034 E10.26814
G1 X69.878 Y143.230 E10.32544
G1 X68.119 Y141.898 E10.38557
G1 X67.493 Y141.083 E10.41357
G1 X67.341 Y141.349 E10.42192
G1 X66.474 Y142.476 E10.46067
G1 X65.523 Y143.205 E10.49332
G1 X65.161 Y143.482 E10.50575
G1 X64.057 Y143.939 E10.53831
G1 X64.057 Y143.938 E10.53833
G1 X63.649 Y144.110 E10.55040
G1 X62.239 Y144.297 E10.58916
G1 X47.784 Y144.300 E10.98308
G1 X46.284 Y144.102 E11.02431
G1 X45.821 Y144.034 E11.03706
G1 X43.878 Y143.230 E11.09437
G1 X42.119 Y141.898 E11.15449
G1 X41.493 Y141.083 E11.18250
G1 X41.341 Y141.349 E11.19085
G1 X40.474 Y142.476 E11.22960
G1 X39.523 Y143.205 E11.26225
G1 X39.161 Y143.482 E11.27467
G1 X38.057 Y143.939 E11.30723
G1 X38.057 Y143.938 E11.30726
G1 X37.649 Y144.110 E11.31933
G1 X36.239 Y144.297 E11.35809
G1 X21.784 Y144.300 E11.75200
G1 X20.284 Y144.102 E11.79324
G1 X19.821 Y144.034 E11.80599
G1 X17.878 Y143.230 E11.86329
G1 X16.119 Y141.898 E11.92342
G1 X14.788 Y140.165 E11.98297
G1 X14.131 Y138.578 E12.02978
G1 X13.955 Y138.144 E12.04254
G1 X13.705 Y136.251 E12.09457
G1 X13.700 Y122.105 E12.48007
G1 X13.700 Y121.783 E12.48884
G1 X13.831 Y120.794 E12.51603
G1 X13.895 Y120.346 E12.52836
G1 X14.348 Y119.248 E12.56073
G1 X14.525 Y118.828 E12.57315
G1 X15.247 Y117.887 E12.60547
G1 X15.534 Y117.511 E12.61836
G1 X15.915 Y117.226 E12.63133
G1 X16.836 Y116.518 E12.66299
G1 X16.902 Y116.491 E12.66493
G1 X16.119 Y115.898 E12.69170
G1 X14.788 Y114.165 E12.75125
G1 X14.131 Y112.578 E12.79805
G1 X13.955 Y112.144 E12.81082
G1 X13.705 Y110.251 E12.86285
G1 X13.700 Y96.105 E13.24835
G1 X13.700 Y95.783 E13.25712
G1 X13.831 Y94.794 E13.28431
G1 X13.895 Y94.346 E13.29664
G1 X14.348 Y93.248 E13.32901
G1 X14.525 Y92.828 E13.34143
G1 X15.247 Y91.887 E13.37375
G1 X15.534 Y91.511 E13.38664
G1 X15.915 Y91.226 E13.39961
G1 X16.836 Y90.518 E13.43126
G1 X16.902 Y90.491 E13.43321
G1 X16.119 Y89.898 E13.45997
G1 X14.788 Y88.165 E13.51952
G1 X14.131 Y86.578 E13.56633
G1 X13.955 Y86.144 E13.57909
G1 X13.705 Y84.251 E13.63113
G1 X13.700 Y70.105 E14.01662
G1 X13.700 Y69.782 E14.02543
G1 X13.831 Y68.795 E14.05256
G1 X13.895 Y68.348 E14.06486
G1 X14.348 Y67.249 E14.09726
G1 X14.526 Y66.827 E14.10974
G1 X15.249 Y65.886 E14.14208
G1 X15.534 Y65.512 E14.15489
G1 X15.915 Y65.227 E14.16786
G1 X16.836 Y64.519 E14.19951
G1 X16.902 Y64.492 E14.20146
G1 X16.118 Y63.898 E14.22826
G1 X14.788 Y62.164 E14.28782
G1 X14.131 Y60.580 E14.33455
G1 X13.954 Y60.145 E14.34735
G1 X13.705 Y58.251 E14.39940
G1 X13.700 Y44.105 E14.78490
G1 X13.700 Y43.782 E14.79370
G1 X13.831 Y42.795 E14.82083
G1 X13.895 Y42.348 E14.83314
G1 X14.348 Y41.249 E14.86553
G1 X14.526 Y40.827 E14.87802
G1 X15.249 Y39.886 E14.91035
G1 X15.534 Y39.512 E14.92317
G1 X15.915 Y39.227 E14.93613
G1 X16.836 Y38.519 E14.96779
G1 X16.902 Y38.492 E14.96973
G1 X16.118 Y37.898 E14.99654
G1 X14.788 Y36.164 E15.05609
G1 X14.131 Y34.580 E15.10282
G1 X13.954 Y34.145 E15.11562
G1 X13.705 Y32.251 E15.16768
G1 X13.700 Y18.105 E15.55318
G1 X13.700 Y17.782 E15.56198
G1 X13.831 Y16.795 E15.58911
G1 X13.895 Y16.348 E15.60142
G1 X14.348 Y15.249 E15.63381
G1 X14.526 Y14.827 E15.64629
G1 X15.249 Y13.886 E15.67863
G1 X15.534 Y13.512 E15.69144
G1 X15.915 Y13.227 E15.70441
G1 F240 E13.70441
G1 Z0.400
G0 F10500 X18.094 Y16.093
;TYPE:WALL-OUTER
G1 Z0.300
G1 F240 E15.70441
G1 F480 X18.653 Y15.663 E15.72363
G1 X19.304 Y15.395 E15.74281
G1 X19.995 Y15.303 E15.76181
G1 X27.791 Y15.300 E15.97426
G1 X28.012 Y15.301 E15.98028
G1 X29.051 Y15.352 E16.00863
G1 X30.065 Y15.503 E16.03657
G1 X31.076 Y15.753 E16.06495
G1 X32.083 Y16.111 E16.09408
G1 X33.046 Y16.564 E16.12308
G1 X33.922 Y17.089 E16.15091
G1 X34.761 Y17.709 E16.17934
G1 X35.572 Y18.440 E16.20909
G1 X36.254 Y19.192 E16.23676
G1 X36.877 Y20.027 E16.26515
G1 X37.422 Y20.933 E16.29396
G1 X37.875 Y21.883 E16.32264
G1 X38.229 Y22.864 E16.35106
G1 X38.487 Y23.885 E16.37976
G1 X38.649 Y24.952 E16.40917
G1 X38.698 Y25.986 E16.43738
G1 X38.700 Y33.789 E16.65002
G1 X38.698 Y34.003 E16.65585
G1 X38.606 Y34.697 E16.67493
G1 X38.337 Y35.348 E16.69413
G1 X37.908 Y35.908 E16.71335
G1 X37.348 Y36.337 E16.73257
G1 X36.696 Y36.607 E16.75181
G1 X36.005 Y36.697 E16.77080
G1 X22.016 Y36.700 E17.15201
G1 X20.787 Y36.539 E17.18579
G1 X19.682 Y36.081 E17.21839
G1 X18.679 Y35.322 E17.25266
G1 X17.932 Y34.348 E17.28611
G1 X17.462 Y33.214 E17.31957
G1 X17.305 Y32.018 E17.35244
G1 X17.300 Y18.016 E17.73401
G1 X17.395 Y17.303 E17.75361
G1 X17.662 Y16.654 E17.77274
G1 X18.094 Y16.093 E17.79203
G0 F10500 X18.374 Y16.381
G0 X25.430 Y17.697
G0 X25.797 Y17.856
G1 F480 X25.778 Y17.898 E17.79329
G1 X25.705 Y18.444 E17.80830
G1 X25.697 Y18.499 E17.80982
G1 X25.777 Y19.096 E17.82623
G1 X25.999 Y19.637 E17.84217
G1 X26.371 Y20.128 E17.85895
G1 X26.806 Y20.462 E17.87390
G1 X26.845 Y20.494 E17.87527
G1 X27.356 Y20.704 E17.89033
G1 X27.399 Y20.723 E17.89161
G1 X28.000 Y20.803 E17.90813
G1 X28.596 Y20.724 E17.92452
G1 X29.137 Y20.502 E17.94045
G1 X29.628 Y20.130 E17.95724
G1 X29.995 Y19.651 E17.97368
G1 X30.198 Y19.157 E17.98824
G1 X30.224 Y19.102 E17.98990
G1 X30.303 Y18.500 E18.00644
G1 X30.224 Y17.905 E18.02280
G1 X29.995 Y17.349 E18.03918
G1 X29.629 Y16.872 E18.05557
G1 X29.151 Y16.506 E18.07197
G1 X28.596 Y16.277 E18.08834
G1 X28.056 Y16.205 E18.10318
G1 X28.001 Y16.197 E18.10470
G1 X27.405 Y16.277 E18.12108
G1 X26.863 Y16.499 E18.13705
G1 X26.372 Y16.871 E18.15383
G1 X26.039 Y17.306 E18.16876
G1 X26.007 Y17.345 E18.17014
G1 X25.797 Y17.856 E18.18519
G0 F10500 X25.430 Y17.697
G0 X25.292 Y19.225
G0 X26.016 Y20.483
G0 X26.748 Y21.471
G0 X26.898 Y21.842
G1 F480 X25.855 Y22.270 E18.21591
G1 X24.973 Y22.946 E18.24620
G1 X24.282 Y23.837 E18.27692
G1 X23.848 Y24.878 E18.30766
G1 X23.711 Y25.910 E18.33603
G1 X23.696 Y25.989 E18.33822
G1 X23.844 Y27.110 E18.36904
G1 X24.272 Y28.148 E18.39963
G1 X24.956 Y29.041 E18.43029
G1 X25.847 Y29.726 E18.46091
G1 X26.886 Y30.155 E18.49155
G1 X28.000 Y30.303 E18.52217
G1 X29.122 Y30.153 E18.55302
G1 X30.102 Y29.748 E18.58192
G1 X30.162 Y29.721 E18.58371
G1 X31.002 Y29.075 E18.61259
G1 X31.052 Y29.033 E18.61437
G1 X31.699 Y28.189 E18.64335
G1 X31.734 Y28.134 E18.64512
G1 X32.136 Y27.164 E18.67374
G1 X32.158 Y27.102 E18.67553
G1 X32.295 Y26.059 E18.70420
G1 X32.302 Y25.994 E18.70598
G1 X32.164 Y24.940 E18.73495
G1 X32.152 Y24.876 E18.73672
G1 X31.750 Y23.902 E18.76544
G1 X31.723 Y23.842 E18.76723
G1 X31.080 Y23.006 E18.79597
G1 X31.040 Y22.955 E18.79774
G1 X30.172 Y22.289 E18.82755
G1 X29.176 Y21.870 E18.85700
G1 X29.115 Y21.845 E18.85879
G1 X28.071 Y21.708 E18.88749
G1 X28.003 Y21.697 E18.88936
G1 X26.898 Y21.842 E18.91974
G0 F10500 X26.748 Y21.471
G0 X28.142 Y21.212
G0 X30.424 Y21.855
G0 X32.208 Y23.703
G0 X33.234 Y24.550
G0 X33.539 Y24.806
G1 F480 X33.507 Y24.845 E18.92111
G1 X33.297 Y25.356 E18.93617
G1 X33.278 Y25.398 E18.93742
G1 X33.205 Y25.944 E18.95243
G1 X33.197 Y25.999 E18.95395
G1 X33.277 Y26.596 E18.97036
G1 X33.499 Y27.137 E18.98630
G1 X33.871 Y27.628 E19.00309
G1 X34.306 Y27.962 E19.01803
G1 X34.345 Y27.994 E19.01941
G1 X34.856 Y28.204 E19.03446
G1 X34.899 Y28.223 E19.03574
G1 X35.500 Y28.303 E19.05226
G1 X36.096 Y28.224 E19.06865
G1 X36.637 Y28.002 E19.08458
G1 X37.128 Y27.630 E19.10137
G1 X37.495 Y27.151 E19.11782
G1 X37.698 Y26.657 E19.13237
G1 X37.724 Y26.602 E19.13403
G1 X37.803 Y26.000 E19.15057
G1 X37.724 Y25.405 E19.16693
G1 X37.495 Y24.849 E19.18332
G1 X37.129 Y24.372 E19.19970
G1 X36.651 Y24.006 E19.21611
G1 X36.096 Y23.777 E19.23247
G1 X35.556 Y23.705 E19.24731
G1 X35.501 Y23.697 E19.24883
G1 X34.905 Y23.777 E19.26522
G1 X34.363 Y23.999 E19.28118
G1 X33.872 Y24.371 E19.29797
G1 X33.539 Y24.806 E19.31289
G0 F10500 X33.465 Y24.556
;TYPE:SKIN
G1 F480 X29.443 Y20.533 E19.46792
G0 F10500 X29.890 Y20.132
G1 F480 X33.866 Y24.108 E19.62115
G0 F10500 X34.373 Y23.766
G1 F480 X30.231 Y19.625 E19.78076
G0 F10500 X30.448 Y18.993
G1 F480 X35.006 Y23.551 E19.95642
G0 F10500 X35.834 Y23.530
G1 F480 X30.468 Y18.164 E20.16322
G0 F10500 X30.659 Y18.140
G0 X30.690 Y16.069
G0 X30.735 Y15.885
G1 F480 X38.111 Y23.262 E20.44750
G0 F10500 X38.343 Y24.342
G1 F480 X29.655 Y15.654 E20.78233
G0 F10500 X28.697 Y15.545
G1 F480 X38.454 Y25.302 E21.15836
G0 F10500 X37.968 Y25.665
G1 F480 X38.218 Y26.338 E21.17835
G1 X38.109 Y27.078 E21.19910
G1 X38.487 Y27.881 E21.22329
G0 F10500 X38.487 Y28.729
G1 F480 X37.389 Y27.631 E21.26561
G0 F10500 X36.943 Y28.033
G1 F480 X38.487 Y29.578 E21.32513
G0 F10500 X38.487 Y30.426
G1 F480 X36.391 Y28.330 E21.40591
G0 F10500 X35.701 Y28.488
G1 F480 X38.487 Y31.275 E21.51330
G0 F10500 X38.487 Y32.123
G1 F480 X34.751 Y28.387 E21.65728
G0 F10500 X34.679 Y28.563
G0 X33.516 Y27.983
G0 X32.936 Y26.818
G0 X33.111 Y26.747
G1 F480 X32.754 Y25.966 E21.68091
G1 X32.408 Y25.196 E21.70392
G0 F10500 X33.171 Y25.110
G1 F480 X31.986 Y23.925 E21.74959
G0 F10500 X32.162 Y23.853
G0 X31.391 Y22.597
G0 X30.159 Y21.851
G0 X30.085 Y22.024
G1 F480 X28.890 Y20.829 E21.79564
G0 F10500 X28.200 Y20.988
G1 F480 X28.335 Y21.547 E21.81891
G1 X27.251 Y20.887 E21.85350
G0 F10500 X27.116 Y21.601
G1 F480 X21.028 Y15.513 E22.08813
G0 F10500 X20.180 Y15.513
G1 F480 X26.460 Y21.793 E22.33015
G0 F10500 X25.858 Y22.040
G1 F480 X19.411 Y15.593 E22.57861
G0 F10500 X18.799 Y15.829
G1 F480 X25.356 Y22.386 E22.83131
G0 F10500 X24.875 Y22.753
G1 F480 X18.311 Y16.190 E23.08426
G0 F10500 X17.926 Y16.653
G1 F480 X24.493 Y23.220 E23.33735
G0 F10500 X24.122 Y23.698
G1 F480 X17.651 Y17.227 E23.58674
G0 F10500 X17.520 Y17.944
G1 F480 X23.865 Y24.289 E23.83127
G0 F10500 X23.632 Y24.905
G1 F480 X17.510 Y18.782 E24.06722
G0 F10500 X17.510 Y19.631
G1 F480 X23.533 Y25.654 E24.29934
G0 F10500 X23.555 Y26.525
G1 F480 X17.510 Y20.480 E24.53231
G0 F10500 X17.510 Y21.329
G1 F480 X23.845 Y27.664 E24.77646
G0 F10500 X23.669 Y27.736
G0 X24.601 Y29.395
G0 X26.262 Y30.330
G0 X26.336 Y30.154
G1 F480 X32.668 Y36.486 E25.02049
G0 F10500 X33.516 Y36.486
G1 F480 X27.474 Y30.444 E25.25334
G0 F10500 X28.347 Y30.468
G1 F480 X34.364 Y36.486 E25.48525
G0 F10500 X35.213 Y36.486
G1 F480 X29.094 Y30.367 E25.72107
G0 F10500 X29.711 Y30.136
G1 F480 X36.053 Y36.478 E25.96549
G0 F10500 X36.772 Y36.348
G1 F480 X30.302 Y29.878 E26.21483
G0 F10500 X30.781 Y29.508
G1 F480 X37.345 Y36.073 E26.46782
G0 F10500 X37.810 Y35.689
G1 F480 X31.245 Y29.124 E26.72083
G0 F10500 X31.614 Y28.644
G1 F480 X38.170 Y35.200 E26.97350
G0 F10500 X38.408 Y34.590
G1 F480 X31.957 Y28.139 E27.22211
G0 F10500 X32.206 Y27.539
G1 F480 X38.487 Y33.820 E27.46418
G0 F10500 X38.487 Y32.972
G1 F480 X32.397 Y26.882 E27.69888
G0 F10500 X32.587 Y26.907
G0 X33.150 Y24.494
G0 X34.776 Y23.292
G0 X37.512 Y22.055
G0 X37.690 Y21.993
G1 F480 X32.004 Y16.306 E27.91803
G0 F10500 X31.940 Y16.487
G0 X33.713 Y17.432
G0 X33.826 Y17.280
G1 F480 X36.719 Y20.173 E28.02953
G0 F10500 X36.556 Y20.269
G0 X38.305 Y26.000
G0 X37.482 Y27.985
G0 X35.500 Y28.805
G0 X31.819 Y36.297
G0 X31.819 Y36.486
G1 F480 X17.511 Y22.178 E28.58094
G0 F10500 X17.511 Y23.026
G1 F480 X30.971 Y36.486 E29.09968
G0 F10500 X30.123 Y36.487
G1 F480 X17.511 Y23.875 E29.58573
G0 F10500 X17.512 Y24.724
G1 F480 X29.274 Y36.487 E30.03905
G0 F10500 X28.426 Y36.487
G1 F480 X17.512 Y25.573 E30.45967
G0 F10500 X17.512 Y26.422
G1 F480 X27.578 Y36.488 E30.84760
G0 F10500 X26.730 Y36.488
G1 F480 X17.512 Y27.270 E31.20285
G0 F10500 X17.513 Y28.120
G1 F480 X25.881 Y36.488 E31.52535
G0 F10500 X25.032 Y36.488
G1 F480 X17.513 Y28.968 E31.81514
G0 F10500 X17.513 Y29.817
G1 F480 X24.185 Y36.488 E32.07226
G0 F10500 X23.336 Y36.488
G1 F480 X17.514 Y30.666 E32.29663
G0 F10500 X17.514 Y31.515
G1 F480 X22.488 Y36.488 E32.48831
G0 F10500 X21.581 Y36.430
G1 F480 X17.568 Y32.418 E32.64295
G0 F10500 X17.812 Y33.510
G1 F480 X20.489 Y36.186 E32.74610
G0 F10500 X20.561 Y36.014
G0 X23.849 Y23.585
G0 X25.436 Y19.318
G0 X25.611 Y19.247
G1 F480 X21.877 Y15.513 E32.89000
G0 F10500 X22.724 Y15.512
G1 F480 X25.512 Y18.299 E32.99743
G0 F10500 X25.670 Y17.609
G1 F480 X23.573 Y15.512 E33.07824
G0 F10500 X24.422 Y15.512
G1 F480 X25.965 Y17.056 E33.13773
G0 F10500 X26.367 Y16.609
G1 F480 X25.270 Y15.512 E33.18001
G0 F10500 X26.118 Y15.511
G1 F480 X27.189 Y16.158 E33.20905
G1 X27.390 Y15.511 E33.22985
G1 X28.334 Y16.030 E33.25921
G1 F240 E31.25921
G1 Z0.400
G0 F10500 X27.791 Y41.300
;TYPE:WALL-OUTER
G1 Z0.300
G1 F240 E33.25921
G1 F480 X28.012 Y41.301 E33.26523
G1 X29.051 Y41.352 E33.29358
G1 X30.065 Y41.503 E33.32151
G1 X31.076 Y41.753 E33.34990
G1 X32.083 Y42.111 E33.37902
G1 X33.046 Y42.564 E33.40802
G1 X33.922 Y43.089 E33.43585
G1 X34.761 Y43.709 E33.46428
G1 X35.572 Y44.440 E33.49404
G1 X36.254 Y45.192 E33.52170
G1 X36.877 Y46.027 E33.55009
G1 X37.422 Y46.933 E33.57890
G1 X37.875 Y47.883 E33.60758
G1 X38.229 Y48.864 E33.63601
G1 X38.487 Y49.885 E33.66470
G1 X38.649 Y50.952 E33.69411
G1 X38.698 Y51.986 E33.72232
G1 X38.700 Y59.789 E33.93497
G1 X38.698 Y60.003 E33.94080
G1 X38.606 Y60.697 E33.95987
G1 X38.337 Y61.348 E33.97907
G1 X37.908 Y61.908 E33.99829
G1 X37.348 Y62.337 E34.01752
G1 X36.696 Y62.607 E34.03675
G1 X36.005 Y62.697 E34.05574
G1 X22.016 Y62.700 E34.43696
G1 X20.787 Y62.539 E34.47074
G1 X19.682 Y62.081 E34.50333
G1 X18.679 Y61.322 E34.53761
G1 X17.932 Y60.348 E34.57106
G1 X17.462 Y59.214 E34.60451
G1 X17.305 Y58.018 E34.63738
G1 X17.300 Y44.016 E35.01896
G1 X17.395 Y43.303 E35.03856
G1 X17.662 Y42.654 E35.05768
G1 X18.094 Y42.093 E35.07698
G1 X18.653 Y41.663 E35.09620
G1 X19.304 Y41.395 E35.11538
G1 X19.995 Y41.303 E35.13438
G1 X27.791 Y41.300 E35.34683
G0 F10500 X28.056 Y42.205
G1 F480 X28.001 Y42.197 E35.34834
G1 X27.405 Y42.277 E35.36473
G1 X26.863 Y42.499 E35.38069
G1 X26.372 Y42.871 E35.39748
G1 X26.039 Y43.306 E35.41241
G1 X26.007 Y43.345 E35.41378
G1 X25.797 Y43.856 E35.42884
G1 X25.778 Y43.898 E35.43009
G1 X25.705 Y44.444 E35.44511
G1 X25.697 Y44.499 E35.44662
G1 X25.777 Y45.096 E35.46303
G1 X25.999 Y45.637 E35.47897
G1 X26.371 Y46.128 E35.49576
G1 X26.806 Y46.462 E35.51070
G1 X26.845 Y46.494 E35.51208
G1 X27.356 Y46.704 E35.52713
G1 X27.399 Y46.723 E35.52841
G1 X28.000 Y46.803 E35.54494
G1 X28.596 Y46.724 E35.56132
G1 X29.137 Y46.502 E35.57726
G1 X29.628 Y46.130 E35.59404
G1 X29.995 Y45.651 E35.61049
G1 X30.198 Y45.157 E35.62504
G1 X30.224 Y45.102 E35.62670
G1 X30.303 Y44.500 E35.64325
G1 X30.224 Y43.905 E35.65960
G1 X29.995 Y43.349 E35.67599
G1 X29.629 Y42.872 E35.69237
G1 X29.151 Y42.506 E35.70878
G1 X28.596 Y42.277 E35.72514
G1 X28.056 Y42.205 E35.73999
G0 F10500 X28.116 Y41.810
G0 X29.401 Y42.071
G0 X30.710 Y43.776
G0 X30.431 Y45.901
G0 X28.725 Y47.210
G0 X28.138 Y47.313
G0 X28.071 Y47.708
G1 F480 X28.003 Y47.697 E35.74186
G1 X26.898 Y47.842 E35.77224
G1 X25.855 Y48.270 E35.80296
G1 X24.973 Y48.946 E35.83324
G1 X24.282 Y49.837 E35.86397
G1 X23.848 Y50.878 E35.89470
G1 X23.711 Y51.910 E35.92307
G1 X23.696 Y51.989 E35.92527
G1 X23.844 Y53.110 E35.95608
G1 X24.272 Y54.148 E35.98668
G1 X24.956 Y55.041 E36.01733
G1 X25.847 Y55.726 E36.04796
G1 X26.886 Y56.155 E36.07859
G1 X28.000 Y56.303 E36.10921
G1 X29.122 Y56.153 E36.14006
G1 X30.102 Y55.748 E36.16896
G1 X30.162 Y55.721 E36.17075
G1 X31.002 Y55.075 E36.19963
G1 X31.052 Y55.033 E36.20141
G1 X31.699 Y54.189 E36.23039
G1 X31.734 Y54.134 E36.23217
G1 X32.136 Y53.164 E36.26078
G1 X32.158 Y53.102 E36.26257
G1 X32.295 Y52.059 E36.29124
G1 X32.302 Y51.994 E36.29302
G1 X32.164 Y50.940 E36.32199
G1 X32.152 Y50.876 E36.32376
G1 X31.750 Y49.902 E36.35248
G1 X31.723 Y49.842 E36.35427
G1 X31.080 Y49.006 E36.38301
G1 X31.040 Y48.955 E36.38478
G1 X30.172 Y48.289 E36.41459
G1 X29.176 Y47.870 E36.44404
G1 X29.115 Y47.845 E36.44584
G1 X28.071 Y47.708 E36.47453
G1 F240 E34.47453
G1 Z0.400
G0 F10500 X33.539 Y50.806
G1 Z0.300
G1 F240 E36.47453
G1 F480 X33.507 Y50.845 E36.47591
G1 X33.297 Y51.356 E36.49096
G1 X33.278 Y51.398 E36.49222
G1 X33.205 Y51.944 E36.50723
G1 X33.197 Y51.999 E36.50874
G1 X33.277 Y52.596 E36.52516
G1 X33.499 Y53.137 E36.54109
G1 X33.871 Y53.628 E36.55788
G1 X34.306 Y53.962 E36.57283
G1 X34.345 Y53.994 E36.57420
G1 X34.856 Y54.204 E36.58926
G1 X34.899 Y54.223 E36.59054
G1 X35.500 Y54.303 E36.60706
G1 X36.096 Y54.224 E36.62344
G1 X36.637 Y54.002 E36.63938
G1 X37.128 Y53.630 E36.65617
G1 X37.495 Y53.151 E36.67261
G1 X37.698 Y52.657 E36.68717
G1 X37.724 Y52.602 E36.68882
G1 X37.803 Y52.000 E36.70537
G1 X37.724 Y51.405 E36.72173
G1 X37.495 Y50.849 E36.73811
G1 X37.129 Y50.372 E36.75450
G1 X36.651 Y50.006 E36.77090
G1 X36.096 Y49.777 E36.78726
G1 X35.556 Y49.705 E36.80211
G1 X35.501 Y49.697 E36.80363
G1 X34.905 Y49.777 E36.82001
G1 X34.363 Y49.999 E36.83597
G1 X33.872 Y50.371 E36.85276
G1 X33.539 Y50.806 E36.86769
G0 F10500 X33.332 Y50.727
;TYPE:SKIN
G1 F480 X29.269 Y46.664 E37.02427
G0 F10500 X29.752 Y46.299
G1 F480 X33.701 Y50.247 E37.17645
G0 F10500 X34.177 Y49.875
G1 F480 X30.126 Y45.824 E37.33257
G0 F10500 X30.390 Y45.239
G1 F480 X34.759 Y49.609 E37.50096
G0 F10500 X35.485 Y49.486
G1 F480 X30.513 Y44.513 E37.69260
G0 F10500 X30.239 Y43.391
G1 F480 X36.608 Y49.760 E37.93806
G0 F10500 X36.681 Y49.586
G0 X37.484 Y50.017
G0 X37.915 Y50.819
G0 X37.739 Y50.891
G1 F480 X38.241 Y51.818 E37.96621
G1 X38.188 Y52.613 E37.98448
G1 X38.487 Y53.337 E38.00583
G0 F10500 X38.487 Y54.185
G1 F480 X37.626 Y53.324 E38.03901
G0 F10500 X37.252 Y53.798
G1 F480 X38.487 Y55.034 E38.08663
G0 F10500 X38.487 Y55.882
G1 F480 X36.769 Y54.164 E38.15284
G0 F10500 X36.174 Y54.418
G1 F480 X38.487 Y56.731 E38.24198
G0 F10500 X38.487 Y57.579
G1 F480 X35.411 Y54.503 E38.36053
G0 F10500 X34.229 Y54.170
G1 F480 X38.487 Y58.428 E38.52462
G0 F10500 X38.487 Y59.276
G1 F480 X32.362 Y53.151 E38.76068
G0 F10500 X32.117 Y53.754
G1 F480 X38.472 Y60.109 E39.00559
G0 F10500 X38.329 Y60.815
G1 F480 X31.850 Y54.336 E39.25529
G0 F10500 X31.481 Y54.816
G1 F480 X38.046 Y61.381 E39.50830
G0 F10500 X37.654 Y61.837
G1 F480 X31.089 Y55.272 E39.76131
G0 F10500 X30.609 Y55.641
G1 F480 X37.157 Y62.188 E40.01364
G0 F10500 X36.535 Y62.415
G1 F480 X30.096 Y55.976 E40.26179
G0 F10500 X29.496 Y56.224
G1 F480 X35.757 Y62.486 E40.50311
G0 F10500 X34.909 Y62.486
G1 F480 X28.826 Y56.403 E40.73754
G0 F10500 X28.079 Y56.504
G1 F480 X34.060 Y62.486 E40.96806
G0 F10500 X33.212 Y62.486
G1 F480 X27.123 Y56.398 E41.20271
G0 F10500 X25.817 Y55.939
G1 F480 X32.364 Y62.487 E41.45504
G0 F10500 X31.515 Y62.487
G1 F480 X17.511 Y48.482 E41.99476
G0 F10500 X17.511 Y49.331
G1 F480 X30.667 Y62.487 E42.50178
G0 F10500 X29.818 Y62.487
G1 F480 X17.512 Y50.180 E42.97606
G0 F10500 X17.512 Y51.029
G1 F480 X28.970 Y62.487 E43.41765
G0 F10500 X28.122 Y62.487
G1 F480 X17.512 Y51.877 E43.82655
G0 F10500 X17.512 Y52.726
G1 F480 X27.273 Y62.487 E44.20273
G0 F10500 X26.425 Y62.487
G1 F480 X17.512 Y53.575 E44.54621
G0 F10500 X17.513 Y54.424
G1 F480 X25.576 Y62.487 E44.85695
G0 F10500 X24.728 Y62.488
G1 F480 X17.513 Y55.273 E45.13501
G0 F10500 X17.514 Y56.122
G1 F480 X23.880 Y62.488 E45.38035
G0 F10500 X23.031 Y62.488
G1 F480 X17.514 Y56.970 E45.59299
G0 F10500 X17.514 Y57.819
G1 F480 X22.183 Y62.488 E45.77292
G0 F10500 X21.230 Y62.384
G1 F480 X17.614 Y58.768 E45.91228
G0 F10500 X17.805 Y58.744
G0 X23.884 Y54.254
G0 X24.060 Y54.182
G1 F480 X17.510 Y47.633 E46.16469
G0 F10500 X17.510 Y46.785
G1 F480 X23.601 Y52.876 E46.39944
G0 F10500 X23.495 Y51.920
G1 F480 X17.510 Y45.935 E46.63009
G0 F10500 X17.510 Y45.087
G1 F480 X23.597 Y51.174 E46.86468
G0 F10500 X23.776 Y50.505
G1 F480 X17.510 Y44.238 E47.10619
G0 F10500 X17.584 Y43.464
G1 F480 X24.025 Y49.905 E47.35442
G0 F10500 X24.360 Y49.392
G1 F480 X17.809 Y42.841 E47.60689
G0 F10500 X18.162 Y42.345
G1 F480 X24.731 Y48.914 E47.86005
G0 F10500 X25.183 Y48.518
G1 F480 X18.618 Y41.953 E48.11306
G0 F10500 X19.184 Y41.670
G1 F480 X25.663 Y48.149 E48.36275
G0 F10500 X26.244 Y47.882
G1 F480 X19.890 Y41.528 E48.60763
G0 F10500 X20.723 Y41.512
G1 F480 X26.848 Y47.637 E48.84368
G0 F10500 X27.597 Y47.538
G1 F480 X26.729 Y46.669 E48.87715
G0 F10500 X27.910 Y47.002
G1 F480 X28.453 Y47.545 E48.89808
G0 F10500 X28.674 Y46.917
G1 F480 X29.559 Y47.803 E48.93221
G0 F10500 X29.632 Y47.629
G0 X31.391 Y48.597
G0 X32.378 Y50.374
G0 X32.203 Y50.446
G1 F480 X33.080 Y51.323 E48.96601
G0 F10500 X32.455 Y51.547
G1 F480 X32.997 Y52.089 E48.98689
G0 F10500 X32.461 Y52.402
G1 F480 X33.358 Y53.298 E49.02144
G0 F10500 X33.206 Y53.411
G0 X34.086 Y54.425
G0 X36.225 Y54.710
G0 X37.931 Y53.401
G0 X38.210 Y51.276
G0 X38.211 Y50.729
G0 X38.398 Y50.702
G1 F480 X29.296 Y41.600 E49.37223
G0 F10500 X29.108 Y42.260
G1 F480 X28.180 Y41.757 E49.40042
G1 X27.384 Y41.809 E49.41875
G1 X26.661 Y41.510 E49.44007
G0 F10500 X25.813 Y41.511
G1 F480 X26.677 Y42.374 E49.47335
G0 F10500 X26.201 Y42.748
G1 F480 X24.965 Y41.511 E49.52100
G0 F10500 X24.116 Y41.511
G1 F480 X25.832 Y43.226 E49.58712
G0 F10500 X25.581 Y43.824
G1 F480 X23.268 Y41.512 E49.67624
G0 F10500 X22.420 Y41.512
G1 F480 X25.497 Y44.589 E49.79482
G0 F10500 X25.858 Y45.799
G1 F480 X21.572 Y41.512 E49.96002
G0 F10500 X21.572 Y41.703
G0 X28.004 Y41.694
G0 X30.283 Y41.968
G0 X30.329 Y41.784
G1 F480 X38.217 Y49.672 E50.26402
G0 F10500 X37.864 Y48.470
G1 F480 X31.531 Y42.137 E50.50809
G0 F10500 X31.468 Y42.316
G0 X32.953 Y42.975
G0 X33.053 Y42.811
G1 F480 X37.181 Y46.939 E50.66717
G0 F10500 X37.019 Y47.036
G0 X32.624 Y50.856
G0 X32.602 Y53.345
G0 X31.315 Y55.464
G0 X29.252 Y56.638
G0 X26.757 Y56.641
G0 X20.042 Y61.799
G0 X19.970 Y61.972
G1 F480 X18.027 Y60.029 E50.74206
G0 F10500 X19.219 Y59.537
G1 F240 E48.74206
G1 Z0.400
G0 F10500 X43.305 Y58.018
;TYPE:WALL-OUTER
G1 Z0.300
G1 F240 E50.74206
G1 F480 X43.300 Y44.016 E51.12363
G1 X43.395 Y43.303 E51.14323
G1 X43.662 Y42.654 E51.16235
G1 X44.094 Y42.093 E51.18165
G1 X44.653 Y41.663 E51.20087
G1 X45.304 Y41.395 E51.22005
G1 X45.995 Y41.303 E51.23905
G1 X53.791 Y41.300 E51.45150
G1 X54.012 Y41.301 E51.45752
G1 X55.051 Y41.352 E51.48587
G1 X56.065 Y41.503 E51.51381
G1 X57.076 Y41.753 E51.54219
G1 X58.083 Y42.111 E51.57132
G1 X59.046 Y42.564 E51.60032
G1 X59.922 Y43.089 E51.62815
G1 X60.761 Y43.709 E51.65658
G1 X61.572 Y44.440 E51.68633
G1 X62.254 Y45.192 E51.71400
G1 X62.877 Y46.027 E51.74239
G1 X63.422 Y46.933 E51.77120
G1 X63.875 Y47.883 E51.79988
G1 X64.229 Y48.864 E51.82830
G1 X64.487 Y49.885 E51.85700
G1 X64.649 Y50.952 E51.88641
G1 X64.698 Y51.986 E51.91462
G1 X64.700 Y59.789 E52.12726
G1 X64.698 Y60.003 E52.13309
G1 X64.606 Y60.697 E52.15217
G1 X64.337 Y61.348 E52.17137
G1 X63.908 Y61.908 E52.19059
G1 X63.348 Y62.337 E52.20981
G1 X62.696 Y62.607 E52.22905
G1 X62.005 Y62.697 E52.24803
G1 X48.016 Y62.700 E52.62925
G1 X46.787 Y62.539 E52.66303
G1 X45.682 Y62.081 E52.69563
G1 X44.679 Y61.322 E52.72990
G1 X43.932 Y60.348 E52.76335
G1 X43.462 Y59.214 E52.79681
G1 X43.305 Y58.018 E52.82968
G0 F10500 X43.705 Y57.984
G0 X49.954 Y54.389
G0 X50.272 Y54.148
G1 F480 X50.956 Y55.041 E52.86033
G1 X51.847 Y55.726 E52.89096
G1 X52.886 Y56.155 E52.92159
G1 X54.000 Y56.303 E52.95222
G1 X55.122 Y56.153 E52.98306
G1 X56.102 Y55.748 E53.01196
G1 X56.162 Y55.721 E53.01375
G1 X57.002 Y55.075 E53.04263
G1 X57.052 Y55.033 E53.04441
G1 X57.699 Y54.189 E53.07339
G1 X57.734 Y54.134 E53.07517
G1 X58.136 Y53.164 E53.10378
G1 X58.158 Y53.102 E53.10558
G1 X58.295 Y52.059 E53.13424
G1 X58.302 Y51.994 E53.13602
G1 X58.164 Y50.940 E53.16499
G1 X58.152 Y50.876 E53.16677
G1 X57.750 Y49.902 E53.19548
G1 X57.723 Y49.842 E53.19727
G1 X57.080 Y49.006 E53.22602
G1 X57.040 Y48.955 E53.22778
G1 X56.172 Y48.289 E53.25760
G1 X55.176 Y47.870 E53.28704
G1 X55.115 Y47.845 E53.28884
G1 X54.071 Y47.708 E53.31753
G1 X54.003 Y47.697 E53.31941
G1 X52.898 Y47.842 E53.34978
G1 X51.855 Y48.270 E53.38050
G1 X50.973 Y48.946 E53.41079
G1 X50.282 Y49.837 E53.44152
G1 X49.848 Y50.878 E53.47225
G1 X49.711 Y51.910 E53.50062
G1 X49.696 Y51.989 E53.50281
G1 X49.844 Y53.110 E53.53363
G1 X50.272 Y54.148 E53.56422
G0 F10500 X49.954 Y54.389
G0 X49.358 Y53.239
G0 X49.363 Y50.747
G0 X50.618 Y48.590
G0 X52.770 Y47.356
G0 X53.197 Y47.071
G0 X53.356 Y46.704
G1 F480 X53.399 Y46.723 E53.56550
G1 X54.000 Y46.803 E53.58203
G1 X54.596 Y46.724 E53.59841
G1 X55.137 Y46.502 E53.61435
G1 X55.628 Y46.130 E53.63113
G1 X55.995 Y45.651 E53.64758
G1 X56.198 Y45.157 E53.66213
G1 X56.224 Y45.102 E53.66379
G1 X56.303 Y44.500 E53.68034
G1 X56.224 Y43.905 E53.69669
G1 X55.995 Y43.349 E53.71308
G1 X55.629 Y42.872 E53.72946
G1 X55.151 Y42.506 E53.74587
G1 X54.596 Y42.277 E53.76223
G1 X54.056 Y42.205 E53.77708
G1 X54.001 Y42.197 E53.77859
G1 X53.405 Y42.277 E53.79498
G1 X52.863 Y42.499 E53.81094
G1 X52.372 Y42.871 E53.82773
G1 X52.039 Y43.306 E53.84266
G1 X52.007 Y43.345 E53.84403
G1 X51.797 Y43.856 E53.85909
G1 X51.778 Y43.898 E53.86034
G1 X51.705 Y44.444 E53.87535
G1 X51.697 Y44.499 E53.87687
G1 X51.777 Y45.096 E53.89328
G1 X51.999 Y45.637 E53.90922
G1 X52.371 Y46.128 E53.92601
G1 X52.806 Y46.462 E53.94095
G1 X52.845 Y46.494 E53.94233
G1 X53.356 Y46.704 E53.95738
G0 F10500 X53.197 Y47.071
G0 X55.368 Y47.410
G0 X57.473 Y48.698
G0 X59.234 Y50.550
G0 X59.539 Y50.806
G1 F480 X59.507 Y50.845 E53.95876
G1 X59.297 Y51.356 E53.97381
G1 X59.278 Y51.398 E53.97507
G1 X59.205 Y51.944 E53.99008
G1 X59.197 Y51.999 E53.99159
G1 X59.277 Y52.596 E54.00801
G1 X59.499 Y53.137 E54.02394
G1 X59.871 Y53.628 E54.04073
G1 X60.306 Y53.962 E54.05568
G1 X60.345 Y53.994 E54.05705
G1 X60.856 Y54.204 E54.07211
G1 X60.899 Y54.223 E54.07339
G1 X61.500 Y54.303 E54.08991
G1 X62.096 Y54.224 E54.10629
G1 X62.637 Y54.002 E54.12223
G1 X63.128 Y53.630 E54.13902
G1 X63.495 Y53.151 E54.15546
G1 X63.698 Y52.657 E54.17002
G1 X63.724 Y52.602 E54.17167
G1 X63.803 Y52.000 E54.18822
G1 X63.724 Y51.405 E54.20458
G1 X63.495 Y50.849 E54.22096
G1 X63.129 Y50.372 E54.23735
G1 X62.651 Y50.006 E54.25375
G1 X62.096 Y49.777 E54.27011
G1 X61.556 Y49.705 E54.28496
G1 X61.501 Y49.697 E54.28648
G1 X60.905 Y49.777 E54.30286
G1 X60.363 Y49.999 E54.31882
G1 X59.872 Y50.371 E54.33561
G1 X59.539 Y50.806 E54.35054
G0 F10500 X59.466 Y50.556
;TYPE:SKIN
G1 F480 X55.442 Y46.533 E54.50560
G0 F10500 X55.889 Y46.131
G1 F480 X59.867 Y50.109 E54.65891
G0 F10500 X60.373 Y49.766
G1 F480 X56.231 Y45.625 E54.81852
G0 F10500 X56.449 Y44.993
G1 F480 X61.006 Y49.551 E54.99416
G0 F10500 X61.834 Y49.530
G1 F480 X56.468 Y44.165 E55.20094
G0 F10500 X56.659 Y44.141
G0 X56.690 Y42.069
G0 X56.735 Y41.886
G1 F480 X64.111 Y49.262 E55.48521
G0 F10500 X64.343 Y50.342
G1 F480 X55.655 Y41.654 E55.82004
G0 F10500 X54.697 Y41.545
G1 F480 X64.454 Y51.302 E56.19606
G0 F10500 X63.968 Y51.664
G1 F480 X64.217 Y52.338 E56.21603
G1 X64.109 Y53.078 E56.23682
G1 X64.487 Y53.880 E56.26098
G0 F10500 X64.487 Y54.729
G1 F480 X63.390 Y53.631 E56.30328
G0 F10500 X62.943 Y54.033
G1 F480 X64.487 Y55.577 E56.36278
G0 F10500 X64.487 Y56.426
G1 F480 X62.390 Y54.329 E56.44360
G0 F10500 X61.700 Y54.488
G1 F480 X64.487 Y57.274 E56.55099
G0 F10500 X64.487 Y58.123
G1 F480 X60.751 Y54.387 E56.69497
G0 F10500 X60.679 Y54.563
G0 X58.382 Y53.613
G0 X58.206 Y53.540
G1 F480 X64.487 Y59.820 E56.93702
G0 F10500 X64.487 Y58.971
G1 F480 X58.397 Y52.881 E57.17172
G0 F10500 X59.111 Y52.747
G1 F480 X58.754 Y51.965 E57.19538
G1 X58.409 Y51.196 E57.21835
G0 F10500 X59.170 Y51.109
G1 F480 X57.986 Y49.925 E57.26398
G0 F10500 X58.162 Y49.853
G0 X57.391 Y48.597
G0 X56.159 Y47.851
G0 X56.085 Y48.024
G1 F480 X54.891 Y46.830 E57.30999
G0 F10500 X54.201 Y46.988
G1 F480 X54.334 Y47.546 E57.33323
G1 X53.251 Y46.887 E57.36778
G0 F10500 X53.116 Y47.601
G1 F480 X47.028 Y41.512 E57.60243
G0 F10500 X47.876 Y41.512
G1 F480 X51.611 Y45.247 E57.74637
G0 F10500 X51.512 Y44.299
G1 F480 X48.724 Y41.512 E57.85380
G0 F10500 X49.573 Y41.512
G1 F480 X51.671 Y43.610 E57.93465
G0 F10500 X51.965 Y43.056
G1 F480 X50.421 Y41.512 E57.99416
G0 F10500 X51.270 Y41.512
G1 F480 X52.366 Y42.608 E58.03640
G0 F10500 X52.873 Y42.266
G1 F480 X52.542 Y41.511 E58.06545
G1 X53.660 Y41.781 E58.08624
G1 X54.334 Y42.030 E58.10582
G0 F10500 X54.359 Y41.842
G0 X57.940 Y42.487
G0 X58.003 Y42.306
G1 F480 X63.691 Y47.993 E58.32501
G0 F10500 X63.512 Y48.055
G0 X62.556 Y46.269
G0 X62.719 Y46.173
G1 F480 X59.826 Y43.280 E58.43651
G0 F10500 X59.713 Y43.432
G0 X54.725 Y47.210
G0 X52.389 Y47.619
G0 X52.460 Y47.794
G1 F480 X46.179 Y41.512 E58.67859
G0 F10500 X45.411 Y41.592
G1 F480 X51.859 Y48.040 E58.92709
G0 F10500 X51.356 Y48.386
G1 F480 X44.799 Y41.829 E59.17979
G0 F10500 X44.312 Y42.190
G1 F480 X50.875 Y48.754 E59.43274
G0 F10500 X50.493 Y49.220
G1 F480 X43.926 Y42.653 E59.68583
G0 F10500 X43.651 Y43.226
G1 F480 X50.122 Y49.698 E59.93524
G0 F10500 X49.865 Y50.289
G1 F480 X43.521 Y43.945 E60.17973
G0 F10500 X43.510 Y44.783
G1 F480 X49.631 Y50.904 E60.41563
G0 F10500 X49.533 Y51.654
G1 F480 X43.510 Y45.631 E60.64775
G0 F10500 X43.511 Y46.480
G1 F480 X49.556 Y52.526 E60.88074
G0 F10500 X49.846 Y53.664
G1 F480 X43.511 Y47.329 E61.12488
G0 F10500 X43.511 Y48.178
G1 F480 X57.820 Y62.487 E61.67634
G0 F10500 X58.667 Y62.486
G1 F480 X52.335 Y56.154 E61.92037
G0 F10500 X53.474 Y56.444
G1 F480 X59.516 Y62.486 E62.15322
G0 F10500 X59.516 Y62.297
G0 X56.971 Y62.298
G0 X56.971 Y62.487
G1 F480 X43.511 Y49.027 E62.67196
G0 F10500 X43.511 Y49.875
G1 F480 X56.123 Y62.487 E63.15801
G0 F10500 X55.274 Y62.487
G1 F480 X43.511 Y50.724 E63.61135
G0 F10500 X43.512 Y51.573
G1 F480 X54.426 Y62.487 E64.03196
G0 F10500 X53.578 Y62.487
G1 F480 X43.512 Y52.422 E64.41988
G0 F10500 X43.512 Y53.270
G1 F480 X52.729 Y62.487 E64.77509
G0 F10500 X51.881 Y62.487
G1 F480 X43.513 Y54.119 E65.09759
G0 F10500 X43.513 Y54.968
G1 F480 X51.033 Y62.488 E65.38740
G0 F10500 X50.184 Y62.488
G1 F480 X43.513 Y55.817 E65.64450
G0 F10500 X43.513 Y56.666
G1 F480 X49.336 Y62.488 E65.86889
G0 F10500 X48.487 Y62.488
G1 F480 X43.513 Y57.514 E66.06058
G0 F10500 X43.568 Y58.417
G1 F480 X47.581 Y62.430 E66.21524
G0 F10500 X46.489 Y62.187
G1 F480 X43.812 Y59.510 E66.31841
G0 F10500 X43.988 Y59.439
G0 X54.371 Y56.657
G0 X54.346 Y56.468
G1 F480 X60.364 Y62.486 E66.55034
G0 F10500 X61.213 Y62.486
G1 F480 X55.094 Y56.367 E66.78616
G0 F10500 X55.712 Y56.136
G1 F480 X62.054 Y62.478 E67.03057
G0 F10500 X62.771 Y62.347
G1 F480 X56.302 Y55.878 E67.27988
G0 F10500 X56.782 Y55.509
G1 F480 X63.346 Y62.073 E67.53285
G0 F10500 X63.810 Y61.689
G1 F480 X57.245 Y55.124 E67.78586
G0 F10500 X57.613 Y54.643
G1 F480 X64.170 Y61.200 E68.03856
G0 F10500 X64.408 Y60.589
G1 F480 X57.958 Y54.139 E68.28714
G0 F10500 X58.990 Y54.843
G1 F240 E66.28714
G1 Z0.400
G0 F10500 X56.065 Y67.503
;TYPE:WALL-OUTER
G1 Z0.300
G1 F240 E68.28714
G1 F480 X57.076 Y67.753 E68.31552
G1 X58.083 Y68.111 E68.34465
G1 X59.046 Y68.564 E68.37365
G1 X59.922 Y69.089 E68.40148
G1 X60.761 Y69.709 E68.42991
G1 X61.572 Y70.440 E68.45966
G1 X62.254 Y71.192 E68.48733
G1 X62.877 Y72.027 E68.51572
G1 X63.422 Y72.933 E68.54453
G1 X63.875 Y73.883 E68.57321
G1 X64.229 Y74.864 E68.60163
G1 X64.487 Y75.885 E68.63033
G1 X64.649 Y76.952 E68.65974
G1 X64.698 Y77.986 E68.68795
G1 X64.700 Y85.789 E68.90059
G1 X64.698 Y86.003 E68.90642
G1 X64.606 Y86.698 E68.92553
G1 X64.338 Y87.347 E68.94466
G1 X63.908 Y87.907 E68.96391
G1 X63.348 Y88.336 E68.98313
G1 X62.695 Y88.606 E69.00239
G1 X62.005 Y88.697 E69.02135
G1 X48.016 Y88.700 E69.40257
G1 X46.787 Y88.538 E69.43635
G1 X45.682 Y88.080 E69.46895
G1 X44.679 Y87.321 E69.50322
G1 X43.932 Y86.348 E69.53665
G1 X43.462 Y85.213 E69.57013
G1 X43.305 Y84.018 E69.60298
G1 X43.300 Y70.016 E69.98455
G1 X43.395 Y69.303 E70.00415
G1 X43.662 Y68.654 E70.02327
G1 X44.094 Y68.093 E70.04257
G1 X44.653 Y67.663 E70.06179
G1 X45.304 Y67.395 E70.08097
G1 X45.995 Y67.303 E70.09997
G1 X53.791 Y67.300 E70.31242
G1 X54.012 Y67.301 E70.31844
G1 X55.051 Y67.352 E70.34679
G1 X56.065 Y67.503 E70.37473
G0 F10500 X55.151 Y68.506
G1 F480 X54.596 Y68.277 E70.39109
G1 X54.056 Y68.205 E70.40594
G1 X54.001 Y68.197 E70.40745
G1 X53.405 Y68.277 E70.42384
G1 X52.863 Y68.499 E70.43980
G1 X52.372 Y68.871 E70.45659
G1 X52.039 Y69.306 E70.47152
G1 X52.007 Y69.345 E70.47289
G1 X51.797 Y69.856 E70.48795
G1 X51.778 Y69.898 E70.48920
G1 X51.705 Y70.444 E70.50421
G1 X51.697 Y70.499 E70.50573
G1 X51.777 Y71.096 E70.52214
G1 X51.999 Y71.637 E70.53808
G1 X52.371 Y72.128 E70.55487
G1 X52.806 Y72.462 E70.56981
G1 X52.845 Y72.494 E70.57119
G1 X53.356 Y72.704 E70.58624
G1 X53.399 Y72.723 E70.58752
G1 X54.000 Y72.803 E70.60404
G1 X54.596 Y72.724 E70.62043
G1 X55.137 Y72.502 E70.63636
G1 X55.628 Y72.130 E70.65315
G1 X55.995 Y71.651 E70.66960
G1 X56.198 Y71.157 E70.68415
G1 X56.224 Y71.102 E70.68581
G1 X56.303 Y70.500 E70.70235
G1 X56.224 Y69.905 E70.71871
G1 X55.995 Y69.349 E70.73510
G1 X55.629 Y68.872 E70.75148
G1 X55.151 Y68.506 E70.76789
G0 F10500 X55.304 Y68.138
G0 X56.430 Y69.099
G0 X56.707 Y71.242
G0 X55.386 Y72.937
G0 X54.138 Y73.313
G0 X54.071 Y73.708
G1 F480 X54.003 Y73.697 E70.76977
G1 X52.898 Y73.842 E70.80014
G1 X51.855 Y74.270 E70.83086
G1 X50.973 Y74.946 E70.86114
G1 X50.282 Y75.837 E70.89187
G1 X49.848 Y76.878 E70.92260
G1 X49.711 Y77.910 E70.95097
G1 X49.696 Y77.989 E70.95317
G1 X49.844 Y79.109 E70.98395
G1 X50.272 Y80.148 E71.01458
G1 X50.956 Y81.040 E71.04521
G1 X51.847 Y81.725 E71.07583
G1 X52.886 Y82.154 E71.10647
G1 X54.000 Y82.303 E71.13710
G1 X55.123 Y82.152 E71.16797
G1 X56.102 Y81.747 E71.19685
G1 X56.162 Y81.720 E71.19864
G1 X57.002 Y81.074 E71.22752
G1 X57.052 Y81.032 E71.22930
G1 X57.699 Y80.189 E71.25825
G1 X57.734 Y80.134 E71.26003
G1 X58.136 Y79.163 E71.28867
G1 X58.158 Y79.101 E71.29046
G1 X58.295 Y78.059 E71.31910
G1 X58.302 Y77.994 E71.32088
G1 X58.164 Y76.940 E71.34985
G1 X58.152 Y76.876 E71.35163
G1 X57.750 Y75.902 E71.38034
G1 X57.723 Y75.842 E71.38213
G1 X57.080 Y75.006 E71.41088
G1 X57.040 Y74.955 E71.41264
G1 X56.172 Y74.289 E71.44246
G1 X55.176 Y73.870 E71.47190
G1 X55.115 Y73.845 E71.47370
G1 X54.071 Y73.708 E71.50239
G1 F240 E69.50239
G1 Z0.400
G0 F10500 X59.539 Y76.806
G1 Z0.300
G1 F240 E71.50239
G1 F480 X59.507 Y76.845 E71.50377
G1 X59.297 Y77.356 E71.51882
G1 X59.278 Y77.398 E71.52008
G1 X59.205 Y77.944 E71.53509
G1 X59.197 Y77.999 E71.53661
G1 X59.277 Y78.595 E71.55299
G1 X59.499 Y79.137 E71.56896
G1 X59.871 Y79.628 E71.58574
G1 X60.306 Y79.961 E71.60067
G1 X60.345 Y79.993 E71.60205
G1 X60.856 Y80.203 E71.61710
G1 X60.898 Y80.222 E71.61836
G1 X61.500 Y80.303 E71.63491
G1 X62.096 Y80.223 E71.65130
G1 X62.637 Y80.001 E71.66723
G1 X63.128 Y79.629 E71.68402
G1 X63.495 Y79.151 E71.70044
G1 X63.704 Y78.644 E71.71539
G1 X63.723 Y78.601 E71.71667
G1 X63.803 Y78.000 E71.73319
G1 X63.724 Y77.405 E71.74955
G1 X63.495 Y76.849 E71.76593
G1 X63.129 Y76.372 E71.78232
G1 X62.651 Y76.006 E71.79873
G1 X62.096 Y75.777 E71.81509
G1 X61.556 Y75.705 E71.82993
G1 X61.501 Y75.697 E71.83145
G1 X60.905 Y75.777 E71.84783
G1 X60.363 Y75.999 E71.86380
G1 X59.872 Y76.371 E71.88058
G1 X59.539 Y76.806 E71.89551
G0 F10500 X59.331 Y76.726
;TYPE:SKIN
G1 F480 X55.269 Y72.664 E72.05206
G0 F10500 X55.752 Y72.298
G1 F480 X59.701 Y76.248 E72.20427
G0 F10500 X60.177 Y75.875
G1 F480 X56.126 Y71.824 E72.36039
G0 F10500 X56.390 Y71.239
G1 F480 X60.759 Y75.608 E72.52877
G0 F10500 X61.485 Y75.486
G1 F480 X56.513 Y70.514 E72.72038
G0 F10500 X56.239 Y69.391
G1 F480 X62.608 Y75.760 E72.96584
G0 F10500 X62.681 Y75.586
G0 X63.484 Y76.017
G0 X63.915 Y76.820
G0 X63.740 Y76.892
G1 F480 X64.241 Y77.817 E72.99398
G1 X64.188 Y78.613 E73.01228
G1 X64.488 Y79.337 E73.03364
G0 F10500 X64.488 Y80.185
G1 F480 X63.626 Y79.323 E73.06686
G0 F10500 X63.252 Y79.798
G1 F480 X64.488 Y81.034 E73.11449
G0 F10500 X64.488 Y81.882
G1 F480 X62.769 Y80.163 E73.18074
G0 F10500 X62.173 Y80.417
G1 F480 X64.488 Y82.731 E73.26994
G0 F10500 X64.488 Y83.580
G1 F480 X61.410 Y80.501 E73.38858
G0 F10500 X60.227 Y80.167
G1 F480 X64.488 Y84.428 E73.55280
G0 F10500 X64.488 Y85.277
G1 F480 X58.361 Y79.149 E73.78894
G0 F10500 X58.117 Y79.755
G1 F480 X64.472 Y86.110 E74.03386
G0 F10500 X64.329 Y86.815
G1 F480 X57.849 Y80.335 E74.28359
G0 F10500 X57.481 Y80.815
G1 F480 X64.046 Y87.381 E74.53662
G0 F10500 X63.653 Y87.836
G1 F480 X57.088 Y81.272 E74.78961
G0 F10500 X56.609 Y81.641
G1 F480 X63.155 Y88.186 E75.04187
G0 F10500 X62.535 Y88.415
G1 F480 X56.096 Y81.976 E75.29002
G0 F10500 X55.496 Y82.225
G1 F480 X61.757 Y88.485 E75.53130
G0 F10500 X60.908 Y88.485
G1 F480 X54.826 Y82.404 E75.76567
G0 F10500 X54.078 Y82.504
G1 F480 X60.060 Y88.485 E75.99619
G0 F10500 X59.211 Y88.485
G1 F480 X53.122 Y82.397 E76.23084
G0 F10500 X51.816 Y81.939
G1 F480 X58.363 Y88.486 E76.48316
G0 F10500 X57.515 Y88.486
G1 F480 X43.511 Y74.482 E77.02286
G0 F10500 X43.511 Y75.331
G1 F480 X56.666 Y88.486 E77.52984
G0 F10500 X55.819 Y88.487
G1 F480 X43.511 Y76.180 E78.00416
G0 F10500 X43.512 Y77.029
G1 F480 X54.970 Y88.487 E78.44574
G0 F10500 X54.121 Y88.487
G1 F480 X43.512 Y77.877 E78.85462
G0 F10500 X43.512 Y78.726
G1 F480 X53.274 Y88.488 E79.23084
G0 F10500 X52.425 Y88.488
G1 F480 X43.513 Y79.575 E79.57432
G0 F10500 X43.704 Y79.575
G0 X43.702 Y73.633
G0 X43.511 Y73.633
G1 F480 X50.060 Y80.183 E79.82673
G0 F10500 X49.884 Y80.254
G0 X43.704 Y80.424
G0 X43.513 Y80.424
G1 F480 X51.577 Y88.488 E80.13751
G0 F10500 X50.729 Y88.488
G1 F480 X43.513 Y81.273 E80.41559
G0 F10500 X43.513 Y82.121
G1 F480 X49.880 Y88.488 E80.66097
G0 F10500 X49.032 Y88.488
G1 F480 X43.514 Y82.971 E80.87361
G0 F10500 X43.514 Y83.819
G1 F480 X48.183 Y88.488 E81.05355
G0 F10500 X47.230 Y88.384
G1 F480 X43.615 Y84.768 E81.19288
G0 F10500 X44.028 Y86.030
G1 F480 X45.968 Y87.970 E81.26765
G0 F10500 X46.040 Y87.797
G0 X49.412 Y78.899
G0 X49.602 Y78.876
G1 F480 X43.510 Y72.784 E81.50243
G0 F10500 X43.510 Y71.936
G1 F480 X49.494 Y77.920 E81.73305
G0 F10500 X49.597 Y77.174
G1 F480 X43.509 Y71.086 E81.96767
G0 F10500 X43.509 Y70.238
G1 F480 X49.776 Y76.504 E82.20918
G0 F10500 X50.025 Y75.905
G1 F480 X43.583 Y69.464 E82.45743
G0 F10500 X43.810 Y68.841
G1 F480 X50.360 Y75.392 E82.70988
G0 F10500 X50.731 Y74.914
G1 F480 X44.163 Y68.346 E82.96300
G0 F10500 X44.619 Y67.953
G1 F480 X51.183 Y74.518 E83.21599
G0 F10500 X51.664 Y74.150
G1 F480 X45.184 Y67.670 E83.46573
G0 F10500 X45.890 Y67.527
G1 F480 X52.244 Y73.882 E83.71062
G0 F10500 X52.847 Y73.636
G1 F480 X46.723 Y67.512 E83.94664
G0 F10500 X47.572 Y67.512
G1 F480 X51.858 Y71.798 E84.11182
G0 F10500 X52.729 Y72.670
G1 F480 X53.597 Y73.537 E84.14525
G0 F10500 X53.911 Y73.003
G1 F480 X54.453 Y73.545 E84.16614
G0 F10500 X54.674 Y72.917
G1 F480 X55.560 Y73.803 E84.20028
G0 F10500 X55.633 Y73.630
G0 X57.391 Y74.597
G0 X58.378 Y76.374
G0 X58.202 Y76.446
G1 F480 X59.080 Y77.324 E84.23412
G0 F10500 X58.455 Y77.546
G1 F480 X58.997 Y78.089 E84.25503
G0 F10500 X58.461 Y78.401
G1 F480 X59.358 Y79.299 E84.28962
G0 F10500 X59.207 Y79.412
G0 X60.086 Y80.424
G0 X62.225 Y80.708
G0 X63.931 Y79.401
G0 X64.210 Y77.276
G0 X64.211 Y76.729
G0 X64.399 Y76.702
G1 F480 X55.297 Y67.600 E84.64040
G0 F10500 X55.108 Y68.260
G1 F480 X54.180 Y67.757 E84.66859
G1 X53.384 Y67.810 E84.68689
G1 X52.661 Y67.511 E84.70821
G0 F10500 X51.813 Y67.511
G1 F480 X52.677 Y68.375 E84.74151
G0 F10500 X52.201 Y68.747
G1 F480 X50.965 Y67.511 E84.78914
G0 F10500 X50.116 Y67.511
G1 F480 X51.832 Y69.227 E84.85527
G0 F10500 X51.580 Y69.823
G1 F480 X49.268 Y67.511 E84.94438
G0 F10500 X48.420 Y67.512
G1 F480 X51.497 Y70.589 E85.06296
G0 F10500 X51.308 Y70.613
G0 X51.650 Y68.994
G0 X53.276 Y67.792
G0 X55.401 Y68.071
G0 X56.283 Y67.968
G0 X56.329 Y67.784
G1 F480 X64.216 Y75.671 E85.36692
G0 F10500 X63.863 Y74.470
G1 F480 X57.531 Y68.138 E85.61095
G0 F10500 X57.468 Y68.316
G0 X58.955 Y68.976
G0 X59.054 Y68.812
G1 F480 X63.181 Y72.939 E85.77000
G0 F10500 X62.076 Y73.605
G1 F240 E83.77000
G1 Z0.400
G0 F10500 X69.300 Y70.016
;TYPE:WALL-OUTER
G1 Z0.300
G1 F240 E85.77000
G1 F480 X69.395 Y69.303 E85.78960
G1 X69.662 Y68.654 E85.80873
G1 X70.094 Y68.093 E85.82802
G1 X70.653 Y67.663 E85.84724
G1 X71.304 Y67.395 E85.86643
G1 X71.995 Y67.303 E85.88542
G1 X79.791 Y67.300 E86.09787
G1 X80.012 Y67.301 E86.10390
G1 X81.050 Y67.352 E86.13222
G1 X82.064 Y67.503 E86.16015
G1 X83.075 Y67.753 E86.18853
G1 X84.082 Y68.111 E86.21766
G1 X85.045 Y68.564 E86.24666
G1 X85.921 Y69.089 E86.27449
G1 X86.760 Y69.709 E86.30292
G1 X87.571 Y70.440 E86.33267
G1 X88.253 Y71.192 E86.36034
G1 X88.876 Y72.027 E86.38873
G1 X89.421 Y72.933 E86.41754
G1 X89.874 Y73.883 E86.44622
G1 X90.228 Y74.864 E86.47465
G1 X90.486 Y75.885 E86.50334
G1 X90.648 Y76.952 E86.53275
G1 X90.698 Y77.987 E86.56099
G1 X90.700 Y85.789 E86.77361
G1 X90.698 Y86.001 E86.77938
G1 X90.605 Y86.698 E86.79855
G1 X90.337 Y87.347 E86.81768
G1 X89.907 Y87.907 E86.83692
G1 X89.347 Y88.337 E86.85616
G1 X88.696 Y88.605 E86.87535
G1 X88.005 Y88.697 E86.89434
G1 X74.016 Y88.700 E87.27556
G1 X72.787 Y88.538 E87.30934
G1 X71.682 Y88.080 E87.34194
G1 X70.679 Y87.321 E87.37622
G1 X69.932 Y86.348 E87.40965
G1 X69.462 Y85.213 E87.44312
G1 X69.305 Y84.018 E87.47597
G1 X69.300 Y70.016 E87.85754
G0 F10500 X69.700 Y70.045
G0 X77.311 Y70.378
G0 X77.705 Y70.444
G1 F480 X77.697 Y70.499 E87.85905
G1 X77.777 Y71.096 E87.87547
G1 X77.999 Y71.637 E87.89140
G1 X78.371 Y72.128 E87.90819
G1 X78.806 Y72.462 E87.92314
G1 X78.845 Y72.494 E87.92451
G1 X79.356 Y72.704 E87.93957
G1 X79.399 Y72.723 E87.94085
G1 X80.000 Y72.803 E87.95737
G1 X80.595 Y72.724 E87.97373
G1 X81.137 Y72.502 E87.98969
G1 X81.628 Y72.130 E88.00648
G1 X81.994 Y71.651 E88.02290
G1 X82.197 Y71.157 E88.03746
G1 X82.222 Y71.103 E88.03908
G1 X82.303 Y70.500 E88.05566
G1 X82.223 Y69.905 E88.07202
G1 X81.994 Y69.349 E88.08841
G1 X81.628 Y68.872 E88.10479
G1 X81.151 Y68.506 E88.12118
G1 X80.595 Y68.277 E88.13756
G1 X80.056 Y68.205 E88.15238
G1 X80.001 Y68.197 E88.15390
G1 X79.405 Y68.277 E88.17028
G1 X78.863 Y68.499 E88.18624
G1 X78.372 Y68.871 E88.20303
G1 X78.039 Y69.306 E88.21796
G1 X78.007 Y69.345 E88.21934
G1 X77.797 Y69.856 E88.23439
G1 X77.778 Y69.898 E88.23565
G1 X77.705 Y70.444 E88.25066
G0 F10500 X77.311 Y70.378
G0 X77.564 Y71.886
G0 X78.748 Y73.471
G0 X78.898 Y73.842
G1 F480 X77.855 Y74.270 E88.28138
G1 X76.973 Y74.946 E88.31166
G1 X76.282 Y75.837 E88.34239
G1 X75.848 Y76.878 E88.37313
G1 X75.711 Y77.910 E88.40150
G1 X75.696 Y77.989 E88.40369
G1 X75.844 Y79.109 E88.43448
G1 X76.272 Y80.148 E88.46510
G1 X76.956 Y81.040 E88.49573
G1 X77.847 Y81.725 E88.52636
G1 X78.886 Y82.154 E88.55699
G1 X80.000 Y82.303 E88.58762
G1 X81.122 Y82.152 E88.61847
G1 X82.102 Y81.747 E88.64737
G1 X82.162 Y81.720 E88.64916
G1 X83.001 Y81.074 E88.67802
G1 X83.051 Y81.032 E88.67979
G1 X83.698 Y80.189 E88.70875
G1 X83.733 Y80.134 E88.71053
G1 X84.135 Y79.163 E88.73917
G1 X84.157 Y79.101 E88.74096
G1 X84.295 Y78.059 E88.76961
G1 X84.302 Y77.994 E88.77139
G1 X84.163 Y76.940 E88.80036
G1 X84.151 Y76.876 E88.80213
G1 X83.749 Y75.902 E88.83085
G1 X83.722 Y75.842 E88.83264
G1 X83.079 Y75.006 E88.86138
G1 X83.039 Y74.955 E88.86315
G1 X82.172 Y74.289 E88.89294
G1 X81.114 Y73.845 E88.92421
G1 X80.071 Y73.708 E88.95288
G1 X80.003 Y73.697 E88.95475
G1 X78.898 Y73.842 E88.98512
G0 F10500 X78.748 Y73.471
G0 X80.142 Y73.212
G0 X82.424 Y73.856
G0 X84.207 Y75.703
G0 X85.233 Y76.550
G0 X85.538 Y76.806
G1 F480 X85.506 Y76.845 E88.98650
G1 X85.296 Y77.356 E89.00155
G1 X85.276 Y77.399 E89.00285
G1 X85.205 Y77.944 E89.01782
G1 X85.197 Y77.998 E89.01931
G1 X85.276 Y78.595 E89.03572
G1 X85.498 Y79.137 E89.05168
G1 X85.871 Y79.628 E89.06849
G1 X86.299 Y79.955 E89.08317
G1 X86.345 Y79.992 E89.08477
G1 X86.843 Y80.197 E89.09945
G1 X86.897 Y80.222 E89.10107
G1 X87.500 Y80.303 E89.11765
G1 X88.095 Y80.223 E89.13401
G1 X88.637 Y80.001 E89.14997
G1 X89.127 Y79.629 E89.16674
G1 X89.494 Y79.151 E89.18316
G1 X89.703 Y78.644 E89.19811
G1 X89.722 Y78.602 E89.19936
G1 X89.803 Y78.000 E89.21592
G1 X89.723 Y77.405 E89.23228
G1 X89.494 Y76.849 E89.24866
G1 X89.128 Y76.372 E89.26505
G1 X88.651 Y76.006 E89.28143
G1 X88.095 Y75.777 E89.29782
G1 X87.556 Y75.705 E89.31264
G1 X87.501 Y75.697 E89.31415
G1 X86.904 Y75.777 E89.33057
G1 X86.363 Y75.999 E89.34650
G1 X85.872 Y76.371 E89.36329
G1 X85.538 Y76.806 E89.37823
G0 F10500 X85.465 Y76.555
;TYPE:SKIN
G1 F480 X81.443 Y72.533 E89.53324
G0 F10500 X81.889 Y72.131
G1 F480 X85.867 Y76.109 E89.68655
G0 F10500 X86.373 Y75.766
G1 F480 X82.230 Y71.624 E89.84620
G0 F10500 X82.447 Y70.992
G1 F480 X87.005 Y75.550 E90.02186
G0 F10500 X87.833 Y75.530
G1 F480 X82.468 Y70.164 E90.22864
G0 F10500 X82.658 Y70.139
G0 X82.690 Y68.069
G0 X82.735 Y67.886
G1 F480 X90.110 Y75.261 E90.51286
G0 F10500 X90.342 Y76.342
G1 F480 X81.655 Y67.655 E90.84765
G0 F10500 X80.697 Y67.545
G1 F480 X90.454 Y77.302 E91.22368
G0 F10500 X89.968 Y77.665
G1 F480 X90.217 Y78.338 E91.24366
G1 X90.109 Y79.078 E91.26445
G1 X90.487 Y79.881 E91.28863
G0 F10500 X90.487 Y80.729
G1 F480 X89.388 Y79.630 E91.33099
G0 F10500 X89.540 Y79.747
G0 X88.224 Y80.708
G0 X86.087 Y80.424
G0 X84.855 Y78.801
G0 X84.934 Y78.817
G0 X85.110 Y78.746
G1 F480 X84.754 Y77.966 E91.35458
G1 X84.408 Y77.195 E91.37761
G0 F10500 X85.169 Y77.108
G1 F480 X83.985 Y75.924 E91.42324
G0 F10500 X84.161 Y75.852
G0 X83.390 Y74.597
G0 X82.159 Y73.851
G0 X82.085 Y74.024
G1 F480 X80.890 Y72.829 E91.46930
G0 F10500 X80.200 Y72.988
G1 F480 X80.804 Y73.592 E91.49258
G0 F10500 X80.830 Y73.405
G0 X82.430 Y71.901
G0 X82.708 Y69.775
G0 X81.401 Y68.071
G0 X80.359 Y67.842
G0 X80.334 Y68.030
G1 F480 X79.660 Y67.781 E91.51255
G1 X78.919 Y67.888 E91.53336
G1 X78.118 Y67.511 E91.55748
G0 F10500 X77.270 Y67.512
G1 F480 X78.367 Y68.609 E91.59976
G0 F10500 X77.966 Y69.056
G1 F480 X76.421 Y67.512 E91.65929
G0 F10500 X75.573 Y67.512
G1 F480 X77.670 Y69.609 E91.74010
G0 F10500 X77.512 Y70.299
G1 F480 X74.724 Y67.512 E91.84753
G0 F10500 X73.877 Y67.513
G1 F480 X77.612 Y71.248 E91.99147
G0 F10500 X77.437 Y71.319
G0 X78.016 Y72.483
G0 X79.179 Y73.063
G0 X79.251 Y72.887
G1 F480 X79.866 Y73.502 E92.01517
G0 F10500 X79.116 Y73.601
G1 F480 X73.028 Y67.513 E92.24980
G0 F10500 X72.180 Y67.513
G1 F480 X78.460 Y73.793 E92.49183
G0 F10500 X77.858 Y74.040
G1 F480 X71.411 Y67.593 E92.74029
G0 F10500 X70.799 Y67.829
G1 F480 X77.356 Y74.386 E92.99299
G0 F10500 X76.875 Y74.753
G1 F480 X70.312 Y68.191 E93.24590
G0 F10500 X69.926 Y68.653
G1 F480 X76.493 Y75.220 E93.49899
G0 F10500 X76.122 Y75.698
G1 F480 X69.651 Y69.227 E93.74837
G0 F10500 X69.520 Y69.944
G1 F480 X75.865 Y76.289 E93.99291
G0 F10500 X75.632 Y76.904
G1 F480 X69.510 Y70.782 E94.22884
G0 F10500 X69.510 Y71.631
G1 F480 X75.533 Y77.655 E94.46098
G0 F10500 X75.555 Y78.525
G1 F480 X69.510 Y72.480 E94.69395
G0 F10500 X69.510 Y73.329
G1 F480 X75.846 Y79.664 E94.93812
G0 F10500 X75.669 Y79.736
G0 X69.704 Y79.270
G0 X69.512 Y79.270
G1 F480 X78.729 Y88.488 E95.29335
G0 F10500 X77.881 Y88.488
G1 F480 X69.513 Y80.120 E95.61584
G0 F10500 X69.513 Y80.968
G1 F480 X77.032 Y88.488 E95.90564
G0 F10500 X76.185 Y88.488
G1 F480 X69.513 Y81.817 E96.16275
G0 F10500 X69.514 Y82.666
G1 F480 X75.336 Y88.488 E96.38713
G0 F10500 X74.488 Y88.488
G1 F480 X69.514 Y83.514 E96.57882
G0 F10500 X69.568 Y84.417
G1 F480 X73.580 Y88.430 E96.73346
G0 F10500 X72.487 Y88.185
G1 F480 X69.812 Y85.510 E96.83655
G0 F10500 X69.987 Y85.437
G0 X69.704 Y78.422
G0 X69.512 Y78.422
G1 F480 X79.578 Y88.488 E97.22449
G0 F10500 X79.578 Y88.298
G0 X84.668 Y88.297
G0 X84.668 Y88.486
G1 F480 X78.333 Y82.152 E97.46861
G0 F10500 X79.473 Y82.443
G1 F480 X85.516 Y88.485 E97.70148
G0 F10500 X86.364 Y88.485
G1 F480 X80.347 Y82.468 E97.93337
G0 F10500 X81.094 Y82.367
G1 F480 X87.213 Y88.485 E98.16918
G0 F10500 X88.053 Y88.477
G1 F480 X81.711 Y82.136 E98.41357
G0 F10500 X82.302 Y81.878
G1 F480 X88.770 Y88.346 E98.66284
G0 F10500 X89.345 Y88.072
G1 F480 X82.781 Y81.508 E98.91581
G0 F10500 X83.244 Y81.123
G1 F480 X89.809 Y87.688 E99.16882
G0 F10500 X90.170 Y87.200
G1 F480 X83.613 Y80.643 E99.42152
G0 F10500 X83.957 Y80.139
G1 F480 X90.408 Y86.590 E99.67014
G0 F10500 X90.487 Y85.820
G1 F480 X84.205 Y79.538 E99.91224
G0 F10500 X84.396 Y78.881
G1 F480 X90.487 Y84.972 E100.14698
G0 F10500 X90.487 Y84.123
G1 F480 X86.749 Y80.386 E100.29102
G0 F10500 X87.700 Y80.487
G1 F480 X90.487 Y83.275 E100.39845
G0 F10500 X90.487 Y82.426
G1 F480 X88.390 Y80.329 E100.47927
G0 F10500 X88.942 Y80.033
G1 F480 X90.487 Y81.578 E100.53881
G0 F10500 X90.298 Y81.578
G0 X83.819 Y88.297
G0 X83.819 Y88.486
G1 F480 X69.511 Y74.178 E101.09023
G0 F10500 X69.511 Y75.026
G1 F480 X82.971 Y88.486 E101.60896
G0 F10500 X82.123 Y88.487
G1 F480 X69.511 Y75.875 E102.09502
G0 F10500 X69.512 Y76.724
G1 F480 X81.274 Y88.487 E102.54834
G0 F10500 X80.426 Y88.487
G1 F480 X69.512 Y77.573 E102.96895
G0 F10500 X69.703 Y77.573
G0 X79.259 Y73.207
G0 X81.386 Y72.937
G0 X82.706 Y71.242
G0 X83.939 Y68.487
G0 X84.004 Y68.307
G1 F480 X89.690 Y73.992 E103.18807
G0 F10500 X89.511 Y74.054
G0 X88.554 Y72.267
G0 X88.717 Y72.170
G1 F480 X85.826 Y69.280 E103.29946
G0 F10500 X85.056 Y70.319
G1 F240 E101.29946
G1 Z0.400
G0 F10500 X82.064 Y93.502
;TYPE:WALL-OUTER
G1 Z0.300
G1 F240 E103.29946
G1 F480 X83.075 Y93.752 E103.32784
G1 X84.082 Y94.110 E103.35697
G1 X85.045 Y94.563 E103.38597
G1 X85.921 Y95.088 E103.41380
G1 X86.760 Y95.708 E103.44223
G1 X87.571 Y96.439 E103.47198
G1 X88.253 Y97.191 E103.49965
G1 X88.876 Y98.026 E103.52804
G1 X89.421 Y98.932 E103.55685
G1 X89.874 Y99.882 E103.58553
G1 X90.228 Y100.863 E103.61395
G1 X90.486 Y101.884 E103.64265
G1 X90.648 Y102.951 E103.67206
G1 X90.698 Y103.987 E103.70033
G1 X90.700 Y111.789 E103.91294
G1 X90.698 Y112.001 E103.91872
G1 X90.605 Y112.698 E103.93788
G1 X90.337 Y113.347 E103.95702
G1 X89.907 Y113.907 E103.97626
G1 X89.347 Y114.337 E103.99550
G1 X88.696 Y114.605 E104.01468
G1 X88.005 Y114.697 E104.03368
G1 X74.016 Y114.700 E104.41490
G1 X72.787 Y114.538 E104.44868
G1 X71.682 Y114.080 E104.48128
G1 X70.679 Y113.321 E104.51555
G1 X69.932 Y112.348 E104.54898
G1 X69.462 Y111.213 E104.58246
G1 X69.305 Y110.018 E104.61530
G1 X69.300 Y96.016 E104.99688
G1 X69.394 Y95.303 E105.01647
G1 X69.663 Y94.653 E105.03564
G1 X70.094 Y94.091 E105.05495
G1 X70.653 Y93.662 E105.07415
G1 X71.304 Y93.394 E105.09333
G1 X71.995 Y93.303 E105.11233
G1 X79.791 Y93.300 E105.32478
G1 X80.012 Y93.301 E105.33080
G1 X81.050 Y93.351 E105.35912
G1 X82.064 Y93.502 E105.38706
G0 F10500 X81.151 Y94.505
G1 F480 X80.595 Y94.276 E105.40344
G1 X80.056 Y94.205 E105.41826
G1 X80.002 Y94.197 E105.41975
G1 X79.405 Y94.276 E105.43616
G1 X78.863 Y94.498 E105.45212
G1 X78.372 Y94.871 E105.46892
G1 X78.045 Y95.299 E105.48360
G1 X78.008 Y95.345 E105.48521
G1 X77.803 Y95.843 E105.49988
G1 X77.778 Y95.897 E105.50151
G1 X77.705 Y96.444 E105.51654
G1 X77.697 Y96.499 E105.51806
G1 X77.777 Y97.095 E105.53445
G1 X77.999 Y97.637 E105.55041
G1 X78.371 Y98.128 E105.56719
G1 X78.806 Y98.461 E105.58212
G1 X78.845 Y98.493 E105.58350
G1 X79.356 Y98.703 E105.59855
G1 X79.398 Y98.722 E105.59981
G1 X80.000 Y98.803 E105.61636
G1 X80.595 Y98.723 E105.63272
G1 X81.137 Y98.501 E105.64868
G1 X81.627 Y98.129 E105.66545
G1 X81.994 Y97.651 E105.68187
G1 X82.203 Y97.144 E105.69682
G1 X82.222 Y97.102 E105.69807
G1 X82.303 Y96.500 E105.71463
G1 X82.223 Y95.904 E105.73101
G1 X81.994 Y95.349 E105.74738
G1 X81.628 Y94.871 E105.76378
G1 X81.151 Y94.505 E105.78017
G0 F10500 X81.304 Y94.137
G0 X82.429 Y95.099
G0 X82.706 Y97.241
G0 X81.386 Y98.936
G0 X80.137 Y99.313
G0 X80.071 Y99.708
G1 F480 X80.003 Y99.697 E105.78204
G1 X78.898 Y99.841 E105.81241
G1 X77.855 Y100.269 E105.84313
G1 X76.973 Y100.945 E105.87342
G1 X76.282 Y101.837 E105.90417
G1 X75.848 Y102.877 E105.93488
G1 X75.711 Y103.910 E105.96327
G1 X75.696 Y103.989 E105.96546
G1 X75.844 Y105.109 E105.99625
G1 X76.272 Y106.148 E106.02687
G1 X76.956 Y107.040 E106.05750
G1 X77.847 Y107.725 E106.08813
G1 X78.886 Y108.154 E106.11876
G1 X80.000 Y108.303 E106.14939
G1 X81.122 Y108.152 E106.18024
G1 X82.102 Y107.747 E106.20914
G1 X82.162 Y107.720 E106.21093
G1 X83.001 Y107.074 E106.23979
G1 X83.051 Y107.032 E106.24157
G1 X83.698 Y106.189 E106.27053
G1 X83.733 Y106.134 E106.27231
G1 X84.135 Y105.163 E106.30094
G1 X84.157 Y105.101 E106.30274
G1 X84.295 Y104.059 E106.33138
G1 X84.302 Y103.994 E106.33316
G1 X84.163 Y102.939 E106.36216
G1 X84.151 Y102.875 E106.36394
G1 X83.749 Y101.902 E106.39262
G1 X83.722 Y101.842 E106.39442
G1 X83.079 Y101.005 E106.42318
G1 X83.039 Y100.954 E106.42495
G1 X82.172 Y100.288 E106.45474
G1 X81.114 Y99.844 E106.48601
G1 X80.071 Y99.708 E106.51467
G0 F10500 X80.137 Y99.313
G0 X81.368 Y99.409
G0 X83.472 Y100.697
G0 X85.227 Y102.556
G0 X85.544 Y102.799
G1 F480 X85.507 Y102.845 E106.51628
G1 X85.302 Y103.343 E106.53096
G1 X85.276 Y103.398 E106.53261
G1 X85.205 Y103.944 E106.54762
G1 X85.197 Y103.998 E106.54911
G1 X85.276 Y104.595 E106.56552
G1 X85.498 Y105.137 E106.58148
G1 X85.871 Y105.628 E106.59828
G1 X86.299 Y105.955 E106.61296
G1 X86.345 Y105.992 E106.61457
G1 X86.843 Y106.197 E106.62924
G1 X86.897 Y106.222 E106.63087
G1 X87.500 Y106.303 E106.64745
G1 X88.095 Y106.223 E106.66381
G1 X88.637 Y106.001 E106.67977
G1 X89.127 Y105.629 E106.69653
G1 X89.494 Y105.151 E106.71296
G1 X89.703 Y104.644 E106.72790
G1 X89.722 Y104.602 E106.72916
G1 X89.803 Y104.000 E106.74571
G1 X89.723 Y103.404 E106.76210
G1 X89.494 Y102.849 E106.77846
G1 X89.128 Y102.371 E106.79486
G1 X88.651 Y102.005 E106.81125
G1 X88.095 Y101.776 E106.82764
G1 X87.556 Y101.705 E106.84245
G1 X87.502 Y101.697 E106.84394
G1 X86.904 Y101.776 E106.86038
G1 X86.363 Y101.998 E106.87631
G1 X85.871 Y102.370 E106.89312
G1 X85.544 Y102.799 E106.90782
G0 F10500 X85.332 Y102.727
;TYPE:SKIN
G1 F480 X81.269 Y98.664 E107.06440
G0 F10500 X81.751 Y98.297
G1 F480 X85.700 Y102.246 E107.21660
G0 F10500 X86.175 Y101.873
G1 F480 X82.125 Y97.823 E107.37268
G0 F10500 X82.389 Y97.239
G1 F480 X86.758 Y101.607 E107.54104
G0 F10500 X87.485 Y101.486
G1 F480 X82.512 Y96.513 E107.73269
G0 F10500 X82.237 Y95.390
G1 F480 X88.606 Y101.759 E107.97815
G0 F10500 X88.679 Y101.585
G0 X89.483 Y102.016
G0 X89.913 Y102.817
G0 X89.737 Y102.889
G1 F480 X90.241 Y103.817 E108.00635
G1 X90.188 Y104.613 E108.02465
G1 X90.488 Y105.337 E108.04600
G0 F10500 X90.488 Y106.186
G1 F480 X89.625 Y105.323 E108.07926
G0 F10500 X89.251 Y105.798
G1 F480 X90.488 Y107.034 E108.12692
G0 F10500 X90.488 Y107.883
G1 F480 X88.769 Y106.164 E108.19317
G0 F10500 X88.173 Y106.416
G1 F480 X90.488 Y108.731 E108.28238
G0 F10500 X90.488 Y109.580
G1 F480 X87.410 Y106.502 E108.40101
G0 F10500 X86.222 Y106.162
G1 F480 X90.488 Y110.428 E108.56542
G0 F10500 X90.488 Y111.277
G1 F480 X84.360 Y105.149 E108.80158
G0 F10500 X84.116 Y105.754
G1 F480 X90.472 Y112.109 E109.04652
G0 F10500 X90.329 Y112.815
G1 F480 X83.849 Y106.335 E109.29625
G0 F10500 X83.481 Y106.815
G1 F480 X90.046 Y113.381 E109.54928
G0 F10500 X89.652 Y113.835
G1 F480 X83.087 Y107.270 E109.80229
G0 F10500 X82.608 Y107.640
G1 F480 X89.156 Y114.187 E110.05462
G0 F10500 X88.534 Y114.414
G1 F480 X82.095 Y107.975 E110.30278
G0 F10500 X81.496 Y108.224
G1 F480 X87.757 Y114.486 E110.54409
G0 F10500 X86.909 Y114.486
G1 F480 X80.826 Y108.403 E110.77852
G0 F10500 X80.079 Y108.504
G1 F480 X86.060 Y114.486 E111.00905
G0 F10500 X85.212 Y114.486
G1 F480 X79.122 Y108.396 E111.24375
G0 F10500 X77.817 Y107.939
G1 F480 X84.364 Y114.486 E111.49606
G0 F10500 X83.515 Y114.486
G1 F480 X69.511 Y100.482 E112.03577
G0 F10500 X69.511 Y101.331
G1 F480 X82.667 Y114.486 E112.54277
G0 F10500 X81.818 Y114.486
G1 F480 X69.512 Y102.180 E113.01703
G0 F10500 X69.512 Y103.028
G1 F480 X80.970 Y114.487 E113.45863
G0 F10500 X80.122 Y114.487
G1 F480 X69.512 Y103.877 E113.86753
G0 F10500 X69.512 Y104.726
G1 F480 X79.273 Y114.487 E114.24371
G0 F10500 X78.425 Y114.487
G1 F480 X69.512 Y105.575 E114.58719
G0 F10500 X69.513 Y106.424
G1 F480 X77.576 Y114.487 E114.89793
G0 F10500 X76.728 Y114.488
G1 F480 X69.513 Y107.273 E115.17599
G0 F10500 X69.514 Y108.122
G1 F480 X75.880 Y114.488 E115.42133
G0 F10500 X75.031 Y114.488
G1 F480 X69.514 Y108.970 E115.63397
G0 F10500 X69.514 Y109.819
G1 F480 X74.183 Y114.488 E115.81391
G0 F10500 X73.230 Y114.384
G1 F480 X69.615 Y110.768 E115.95325
G0 F10500 X70.028 Y112.030
G1 F480 X71.967 Y113.970 E116.02799
G0 F10500 X72.039 Y113.797
G0 X75.883 Y106.253
G0 X76.059 Y106.182
G1 F480 X69.510 Y99.633 E116.28039
G0 F10500 X69.510 Y98.784
G1 F480 X75.602 Y104.876 E116.51517
G0 F10500 X75.494 Y103.920
G1 F480 X69.510 Y97.935 E116.74580
G0 F10500 X69.510 Y97.087
G1 F480 X75.596 Y103.173 E116.98035
G0 F10500 X75.776 Y102.505
G1 F480 X69.510 Y96.238 E117.22186
G0 F10500 X69.584 Y95.464
G1 F480 X76.025 Y101.906 E117.47011
G0 F10500 X76.361 Y101.392
G1 F480 X69.811 Y94.842 E117.72254
G0 F10500 X70.162 Y94.345
G1 F480 X76.731 Y100.914 E117.97570
G0 F10500 X77.183 Y100.518
G1 F480 X70.618 Y93.953 E118.22871
G0 F10500 X71.184 Y93.670
G1 F480 X77.663 Y100.149 E118.47841
G0 F10500 X78.244 Y99.881
G1 F480 X71.890 Y93.527 E118.72328
G0 F10500 X72.723 Y93.512
G1 F480 X78.846 Y99.635 E118.95926
G0 F10500 X79.596 Y99.537
G1 F480 X78.727 Y98.667 E118.99277
G0 F10500 X77.858 Y97.799
G1 F480 X73.571 Y93.512 E119.15798
G0 F10500 X74.420 Y93.512
G1 F480 X77.497 Y96.589 E119.27657
G0 F10500 X77.580 Y95.823
G1 F480 X75.267 Y93.511 E119.36569
G0 F10500 X76.116 Y93.511
G1 F480 X77.832 Y95.227 E119.43182
G0 F10500 X78.201 Y94.748
G1 F480 X76.965 Y93.511 E119.47948
G0 F10500 X77.812 Y93.510
G1 F480 X78.676 Y94.374 E119.51278
G0 F10500 X79.258 Y94.108
G1 F480 X79.085 Y93.510 E119.53579
G1 X79.985 Y93.986 E119.56354
G0 F10500 X79.962 Y93.798
G0 X81.401 Y94.070
G0 X82.708 Y95.774
G0 X82.430 Y97.901
G0 X80.724 Y99.208
G0 X79.884 Y99.190
G0 X79.910 Y99.002
G1 F480 X80.453 Y99.545 E119.58446
G0 F10500 X80.673 Y98.917
G1 F480 X81.557 Y99.801 E119.61853
G0 F10500 X81.630 Y99.628
G0 X82.805 Y96.500
G0 X81.983 Y94.516
G0 X81.179 Y94.085
G0 X81.106 Y94.258
G1 F480 X80.376 Y93.528 E119.64667
G0 F10500 X81.296 Y93.599
G1 F480 X90.397 Y102.701 E119.99743
G0 F10500 X90.216 Y101.671
G1 F480 X82.328 Y93.783 E120.30143
G0 F10500 X83.530 Y94.137
G1 F480 X89.862 Y100.469 E120.54545
G0 F10500 X89.683 Y100.532
G0 X86.114 Y101.563
G0 X85.075 Y102.587
G0 X84.908 Y103.243
G0 X85.079 Y103.322
G1 F480 X84.200 Y102.444 E120.57931
G0 F10500 X84.455 Y103.547
G1 F480 X84.997 Y104.089 E120.60020
G0 F10500 X84.461 Y104.402
G1 F480 X85.354 Y105.294 E120.63460
G0 F10500 X85.202 Y105.407
G0 X84.710 Y103.874
G0 X85.518 Y102.015
G0 X87.504 Y101.194
G0 X89.018 Y99.035
G0 X89.180 Y98.938
G1 F480 X85.052 Y94.810 E120.79369
G0 F10500 X84.386 Y95.917
G1 F240 E118.79369
G1 Z0.400
G0 F10500 X64.229 Y100.863
;TYPE:WALL-OUTER
G1 Z0.300
G1 F240 E120.79369
G1 F480 X64.487 Y101.884 E120.82238
G1 X64.649 Y102.951 E120.85179
G1 X64.698 Y103.986 E120.88003
G1 X64.700 Y111.789 E121.09267
G1 X64.698 Y112.003 E121.09850
G1 X64.606 Y112.698 E121.11761
G1 X64.338 Y113.347 E121.13674
G1 X63.908 Y113.907 E121.15598
G1 X63.348 Y114.336 E121.17521
G1 X62.695 Y114.606 E121.19446
G1 X62.005 Y114.697 E121.21343
G1 X48.016 Y114.700 E121.59465
G1 X46.787 Y114.538 E121.62843
G1 X45.682 Y114.080 E121.66103
G1 X44.679 Y113.321 E121.69530
G1 X43.932 Y112.348 E121.72873
G1 X43.462 Y111.213 E121.76221
G1 X43.305 Y110.018 E121.79505
G1 X43.300 Y96.016 E122.17663
G1 X43.394 Y95.303 E122.19622
G1 X43.663 Y94.653 E122.21540
G1 X44.094 Y94.091 E122.23470
G1 X44.653 Y93.662 E122.25390
G1 X45.304 Y93.394 E122.27308
G1 X45.995 Y93.303 E122.29208
G1 X53.791 Y93.300 E122.50453
G1 X54.012 Y93.301 E122.51055
G1 X55.051 Y93.351 E122.53890
G1 X56.065 Y93.502 E122.56683
G1 X57.076 Y93.752 E122.59522
G1 X58.083 Y94.110 E122.62434
G1 X59.046 Y94.563 E122.65334
G1 X59.922 Y95.088 E122.68117
G1 X60.761 Y95.708 E122.70960
G1 X61.572 Y96.439 E122.73936
G1 X62.254 Y97.191 E122.76702
G1 X62.877 Y98.026 E122.79541
G1 X63.422 Y98.932 E122.82422
G1 X63.875 Y99.882 E122.85290
G1 X64.229 Y100.863 E122.88133
G0 F10500 X63.847 Y100.983
G0 X63.373 Y102.055
G0 X63.129 Y102.371
G1 F480 X62.651 Y102.005 E122.89773
G1 X62.096 Y101.776 E122.91409
G1 X61.556 Y101.705 E122.92894
G1 X61.502 Y101.697 E122.93042
G1 X60.905 Y101.776 E122.94683
G1 X60.363 Y101.998 E122.96279
G1 X59.872 Y102.371 E122.97960
G1 X59.545 Y102.799 E122.99428
G1 X59.508 Y102.845 E122.99589
G1 X59.303 Y103.343 E123.01056
G1 X59.278 Y103.397 E123.01218
G1 X59.205 Y103.944 E123.02722
G1 X59.197 Y103.999 E123.02874
G1 X59.277 Y104.595 E123.04512
G1 X59.499 Y105.137 E123.06108
G1 X59.871 Y105.628 E123.07787
G1 X60.306 Y105.961 E123.09280
G1 X60.345 Y105.993 E123.09418
G1 X60.856 Y106.203 E123.10923
G1 X60.898 Y106.222 E123.11049
G1 X61.500 Y106.303 E123.12704
G1 X62.096 Y106.223 E123.14343
G1 X62.637 Y106.001 E123.15936
G1 X63.128 Y105.629 E123.17615
G1 X63.495 Y105.151 E123.19257
G1 X63.704 Y104.644 E123.20752
G1 X63.723 Y104.601 E123.20880
G1 X63.803 Y104.000 E123.22532
G1 X63.724 Y103.404 E123.24170
G1 X63.495 Y102.849 E123.25807
G1 X63.129 Y102.371 E123.27447
G0 F10500 X63.373 Y102.055
G0 X62.225 Y101.290
G0 X60.114 Y101.563
G0 X58.562 Y102.889
G0 X58.164 Y102.939
G1 F480 X58.152 Y102.875 E123.27625
G1 X57.750 Y101.902 E123.30494
G1 X57.723 Y101.842 E123.30673
G1 X57.080 Y101.005 E123.33549
G1 X57.040 Y100.954 E123.33726
G1 X56.172 Y100.288 E123.36707
G1 X55.176 Y99.869 E123.39652
G1 X55.115 Y99.844 E123.39832
G1 X54.071 Y99.708 E123.42701
G1 X54.003 Y99.697 E123.42888
G1 X52.898 Y99.841 E123.45925
G1 X51.855 Y100.269 E123.48997
G1 X50.973 Y100.945 E123.52026
G1 X50.282 Y101.837 E123.55101
G1 X49.848 Y102.877 E123.58172
G1 X49.711 Y103.910 E123.61011
G1 X49.696 Y103.989 E123.61230
G1 X49.844 Y105.109 E123.64309
G1 X50.272 Y106.148 E123.67371
G1 X50.956 Y107.040 E123.70435
G1 X51.847 Y107.725 E123.73497
G1 X52.886 Y108.154 E123.76561
G1 X54.000 Y108.303 E123.79623
G1 X55.123 Y108.152 E123.82711
G1 X56.102 Y107.747 E123.85598
G1 X56.162 Y107.720 E123.85778
G1 X57.002 Y107.074 E123.88665
G1 X57.052 Y107.032 E123.88843
G1 X57.699 Y106.189 E123.91739
G1 X57.734 Y106.134 E123.91917
G1 X58.136 Y105.163 E123.94781
G1 X58.158 Y105.101 E123.94960
G1 X58.295 Y104.059 E123.97824
G1 X58.302 Y103.994 E123.98002
G1 X58.164 Y102.939 E124.00902
G0 F10500 X58.562 Y102.889
G0 X58.152 Y101.583
G0 X56.424 Y99.854
G0 X55.289 Y98.870
G0 X55.137 Y98.501
G1 F480 X55.628 Y98.129 E124.02580
G1 X55.995 Y97.651 E124.04223
G1 X56.204 Y97.144 E124.05717
G1 X56.223 Y97.101 E124.05845
G1 X56.303 Y96.500 E124.07498
G1 X56.224 Y95.904 E124.09136
G1 X55.995 Y95.349 E124.10772
G1 X55.629 Y94.871 E124.12413
G1 X55.151 Y94.505 E124.14053
G1 X54.596 Y94.276 E124.15689
G1 X54.056 Y94.205 E124.17174
G1 X54.002 Y94.197 E124.17322
G1 X53.405 Y94.276 E124.18963
G1 X52.863 Y94.498 E124.20560
G1 X52.372 Y94.871 E124.22240
G1 X52.045 Y95.299 E124.23708
G1 X52.008 Y95.345 E124.23869
G1 X51.803 Y95.843 E124.25336
G1 X51.778 Y95.897 E124.25498
G1 X51.705 Y96.444 E124.27002
G1 X51.697 Y96.499 E124.27154
G1 X51.777 Y97.095 E124.28792
G1 X51.999 Y97.637 E124.30389
G1 X52.371 Y98.128 E124.32067
G1 X52.806 Y98.461 E124.33560
G1 X52.845 Y98.493 E124.33698
G1 X53.356 Y98.703 E124.35203
G1 X53.398 Y98.722 E124.35329
G1 X54.000 Y98.803 E124.36984
G1 X54.596 Y98.723 E124.38623
G1 X55.137 Y98.501 E124.40216
G0 F10500 X55.060 Y98.759
;TYPE:SKIN
G1 F480 X56.818 Y100.517 E124.46992
G0 F10500 X57.475 Y101.174
G1 F480 X59.242 Y102.941 E124.53801
G0 F10500 X59.570 Y102.420
G1 F480 X55.578 Y98.429 E124.69184
G0 F10500 X55.993 Y97.995
G1 F480 X60.003 Y102.005 E124.84639
G0 F10500 X60.542 Y101.696
G1 F480 X56.301 Y97.454 E125.00985
G0 F10500 X56.476 Y96.781
G1 F480 X61.216 Y101.521 E125.19252
G0 F10500 X62.108 Y101.565
G1 F480 X56.433 Y95.890 E125.41123
G0 F10500 X56.623 Y95.866
G0 X56.994 Y94.146
G0 X57.058 Y93.969
G1 F480 X64.031 Y100.942 E125.67997
G0 F10500 X64.302 Y102.061
G1 F480 X55.935 Y93.695 E126.00240
G0 F10500 X54.947 Y93.555
G1 F480 X64.444 Y103.052 E126.36841
G0 F10500 X63.933 Y103.390
G1 F480 X64.231 Y104.111 E126.38967
G1 X64.144 Y104.874 E126.40941
G1 X64.488 Y105.641 E126.43232
G0 F10500 X64.488 Y106.490
G1 F480 X63.493 Y105.496 E126.47065
G0 F10500 X63.078 Y105.929
G1 F480 X64.488 Y107.338 E126.52497
G0 F10500 X64.488 Y108.187
G1 F480 X62.560 Y106.259 E126.59927
G0 F10500 X61.911 Y106.459
G1 F480 X64.488 Y109.035 E126.69857
G0 F10500 X64.488 Y109.884
G1 F480 X61.058 Y106.454 E126.83076
G0 F10500 X61.031 Y106.643
G0 X60.086 Y106.424
G0 X58.452 Y105.443
G0 X58.276 Y105.369
G1 F480 X64.488 Y111.581 E127.07016
G0 F10500 X64.437 Y112.379
G1 F480 X58.028 Y105.969 E127.31718
G0 F10500 X57.717 Y106.507
G1 F480 X64.241 Y113.031 E127.56861
G0 F10500 X63.914 Y113.553
G1 F480 X57.349 Y106.988 E127.82162
G0 F10500 X56.916 Y107.403
G1 F480 X63.481 Y113.968 E128.07463
G0 F10500 X62.940 Y114.276
G1 F480 X56.437 Y107.772 E128.32526
G0 F10500 X55.881 Y108.065
G1 F480 X62.265 Y114.450 E128.57132
G0 F10500 X61.453 Y114.486
G1 F480 X55.281 Y108.314 E128.80918
G0 F10500 X54.558 Y108.439
G1 F480 X60.604 Y114.486 E129.04221
G0 F10500 X60.604 Y114.297
G0 X64.299 Y110.732
G0 X64.488 Y110.732
G1 F480 X58.426 Y104.670 E129.27583
G0 F10500 X59.045 Y104.441
G1 F480 X58.770 Y103.742 E129.29678
G1 X58.373 Y102.921 E129.32163
G0 F10500 X58.563 Y102.897
G0 X58.791 Y104.119
G0 X58.109 Y106.476
G0 X56.301 Y108.205
G0 X54.000 Y108.805
G0 X53.725 Y108.669
G0 X53.750 Y108.480
G1 F480 X59.756 Y114.486 E129.55310
G0 F10500 X58.908 Y114.486
G1 F480 X52.742 Y108.320 E129.79073
G0 F10500 X52.668 Y108.496
G0 X51.596 Y108.160
G0 X49.837 Y106.398
G0 X49.502 Y105.329
G0 X49.678 Y105.257
G1 F480 X43.510 Y99.088 E130.02846
G0 F10500 X43.510 Y98.240
G1 F480 X49.518 Y104.248 E130.26000
G0 F10500 X49.561 Y103.443
G1 F480 X43.509 Y97.391 E130.49324
G0 F10500 X43.509 Y96.542
G1 F480 X49.686 Y102.719 E130.73129
G0 F10500 X49.936 Y102.121
G1 F480 X43.547 Y95.732 E130.97752
G0 F10500 X43.721 Y95.057
G1 F480 X50.227 Y101.563 E131.22826
G0 F10500 X50.598 Y101.085
G1 F480 X44.030 Y94.518 E131.48136
G0 F10500 X44.446 Y94.085
G1 F480 X51.010 Y100.649 E131.73433
G0 F10500 X51.491 Y100.281
G1 F480 X44.968 Y93.758 E131.98572
G0 F10500 X45.621 Y93.563
G1 F480 X52.028 Y99.970 E132.23264
G0 F10500 X52.629 Y99.723
G1 F480 X46.419 Y93.512 E132.47199
G0 F10500 X47.267 Y93.512
G1 F480 X53.327 Y99.572 E132.70554
G0 F10500 X53.559 Y98.955
G1 F480 X54.257 Y99.228 E132.72651
G1 X55.078 Y99.626 E132.75137
G0 F10500 X55.102 Y99.439
G0 X52.500 Y98.855
G0 X51.292 Y97.224
G0 X51.356 Y96.966
G0 X51.545 Y96.942
G1 F480 X48.116 Y93.512 E132.88354
G0 F10500 X48.964 Y93.512
G1 F480 X51.541 Y96.088 E132.98284
G0 F10500 X51.741 Y95.441
G1 F480 X49.812 Y93.512 E133.05718
G0 F10500 X50.661 Y93.512
G1 F480 X52.069 Y94.920 E133.11144
G0 F10500 X52.504 Y94.506
G1 F480 X51.509 Y93.511 E133.14979
G0 F10500 X52.357 Y93.511
G1 F480 X53.379 Y94.108 E133.17613
G1 X53.631 Y93.512 E133.19576
G1 X54.609 Y94.065 E133.22638
G0 F10500 X54.634 Y93.878
G0 X58.371 Y94.685
G0 X58.452 Y94.514
G1 F480 X63.481 Y99.544 E133.42021
G0 F10500 X63.310 Y99.625
G0 X61.766 Y97.249
G0 X61.908 Y97.122
G1 F480 X60.918 Y96.132 E133.45836
G0 F10500 X60.790 Y96.272
G0 X54.725 Y99.208
G0 X52.586 Y98.924
G0 X43.702 Y99.938
G0 X43.511 Y99.938
G1 F480 X58.059 Y114.486 E134.01903
G0 F10500 X57.211 Y114.486
G1 F480 X43.511 Y100.786 E134.54702
G0 F10500 X43.511 Y101.635
G1 F480 X56.363 Y114.487 E135.04232
G0 F10500 X55.514 Y114.487
G1 F480 X43.511 Y102.484 E135.50491
G0 F10500 X43.512 Y103.333
G1 F480 X54.666 Y114.487 E135.93477
G0 F10500 X53.817 Y114.487
G1 F480 X43.512 Y104.182 E136.33192
G0 F10500 X43.513 Y105.031
G1 F480 X52.970 Y114.488 E136.69638
G0 F10500 X52.121 Y114.488
G1 F480 X43.513 Y105.880 E137.02813
G0 F10500 X43.513 Y106.729
G1 F480 X51.273 Y114.488 E137.32717
G0 F10500 X50.425 Y114.489
G1 F480 X43.513 Y107.577 E137.59355
G0 F10500 X43.514 Y108.427
G1 F480 X49.576 Y114.489 E137.82718
G0 F10500 X48.728 Y114.489
G1 F480 X43.514 Y109.275 E138.02812
G0 F10500 X43.533 Y110.142
G1 F480 X47.857 Y114.467 E138.19478
G0 F10500 X46.880 Y114.338
G1 F480 X43.661 Y111.119 E138.31884
G0 F10500 X43.851 Y111.095
G0 X44.862 Y112.904
G0 X44.711 Y113.018
G1 F480 X44.973 Y113.279 E138.32892
G0 F10500 X45.751 Y112.252
G1 F240 E136.32892
G1 Z0.400
G0 F10500 X45.995 Y119.303
;TYPE:WALL-OUTER
G1 Z0.300
G1 F240 E138.32892
G1 F480 X53.791 Y119.300 E138.54137
G1 X54.012 Y119.301 E138.54739
G1 X55.051 Y119.351 E138.57574
G1 X56.065 Y119.502 E138.60368
G1 X57.076 Y119.752 E138.63206
G1 X58.083 Y120.110 E138.66118
G1 X59.046 Y120.563 E138.69018
G1 X59.922 Y121.088 E138.71801
G1 X60.761 Y121.708 E138.74644
G1 X61.572 Y122.439 E138.77620
G1 X62.254 Y123.191 E138.80386
G1 X62.877 Y124.026 E138.83225
G1 X63.422 Y124.932 E138.86106
G1 X63.875 Y125.882 E138.88975
G1 X64.229 Y126.863 E138.91817
G1 X64.487 Y127.884 E138.94686
G1 X64.649 Y128.951 E138.97627
G1 X64.698 Y129.986 E139.00451
G1 X64.700 Y137.789 E139.21715
G1 X64.698 Y138.003 E139.22299
G1 X64.606 Y138.698 E139.24209
G1 X64.338 Y139.347 E139.26122
G1 X63.908 Y139.907 E139.28047
G1 X63.348 Y140.336 E139.29969
G1 X62.695 Y140.606 E139.31895
G1 X62.005 Y140.697 E139.33791
G1 X48.016 Y140.700 E139.71913
G1 X46.787 Y140.538 E139.75291
G1 X45.682 Y140.080 E139.78551
G1 X44.679 Y139.321 E139.81978
G1 X43.932 Y138.348 E139.85321
G1 X43.462 Y137.213 E139.88669
G1 X43.305 Y136.018 E139.91954
G1 X43.300 Y122.016 E140.30111
G1 X43.394 Y121.303 E140.32071
G1 X43.663 Y120.653 E140.33988
G1 X44.094 Y120.091 E140.35918
G1 X44.653 Y119.662 E140.37838
G1 X45.304 Y119.394 E140.39756
G1 X45.995 Y119.303 E140.41656
G0 F10500 X46.029 Y119.703
G0 X51.437 Y121.680
G0 X51.803 Y121.843
G1 F480 X51.778 Y121.897 E140.41818
G1 X51.705 Y122.444 E140.43322
G1 X51.697 Y122.499 E140.43473
G1 X51.777 Y123.095 E140.45112
G1 X51.999 Y123.637 E140.46708
G1 X52.371 Y124.128 E140.48387
G1 X52.806 Y124.461 E140.49880
G1 X52.845 Y124.493 E140.50017
G1 X53.356 Y124.703 E140.51523
G1 X53.398 Y124.722 E140.51648
G1 X54.000 Y124.803 E140.53304
G1 X54.596 Y124.723 E140.54942
G1 X55.137 Y124.501 E140.56536
G1 X55.628 Y124.129 E140.58215
G1 X55.995 Y123.651 E140.59857
G1 X56.204 Y123.144 E140.61351
G1 X56.223 Y123.101 E140.61479
G1 X56.303 Y122.500 E140.63132
G1 X56.224 Y121.904 E140.64770
G1 X55.995 Y121.349 E140.66406
G1 X55.629 Y120.871 E140.68047
G1 X55.151 Y120.505 E140.69687
G1 X54.596 Y120.276 E140.71324
G1 X54.056 Y120.205 E140.72808
G1 X54.002 Y120.197 E140.72957
G1 X53.405 Y120.276 E140.74598
G1 X52.863 Y120.498 E140.76194
G1 X52.372 Y120.871 E140.77874
G1 X52.045 Y121.299 E140.79342
G1 X52.008 Y121.345 E140.79503
G1 X51.803 Y121.843 E140.80970
G0 F10500 X51.437 Y121.680
G0 X51.292 Y123.224
G0 X52.016 Y124.482
G0 X52.846 Y125.444
G0 X52.898 Y125.841
G1 F480 X51.855 Y126.269 E140.84043
G1 X50.973 Y126.945 E140.87071
G1 X50.282 Y127.837 E140.90146
G1 X49.848 Y128.877 E140.93217
G1 X49.711 Y129.910 E140.96057
G1 X49.696 Y129.989 E140.96276
G1 X49.844 Y131.109 E140.99354
G1 X50.272 Y132.148 E141.02417
G1 X50.956 Y133.040 E141.05480
G1 X51.847 Y133.725 E141.08543
G1 X52.886 Y134.154 E141.11606
G1 X54.000 Y134.303 E141.14669
G1 X55.123 Y134.152 E141.17757
G1 X56.102 Y133.747 E141.20644
G1 X56.162 Y133.720 E141.20823
G1 X57.002 Y133.074 E141.23711
G1 X57.052 Y133.032 E141.23889
G1 X57.699 Y132.189 E141.26785
G1 X57.734 Y132.134 E141.26962
G1 X58.136 Y131.163 E141.29826
G1 X58.158 Y131.101 E141.30005
G1 X58.295 Y130.059 E141.32869
G1 X58.302 Y129.994 E141.33048
G1 X58.164 Y128.939 E141.35947
G1 X58.152 Y128.875 E141.36125
G1 X57.750 Y127.902 E141.38994
G1 X57.723 Y127.842 E141.39173
G1 X57.080 Y127.005 E141.42049
G1 X57.040 Y126.954 E141.42226
G1 X56.172 Y126.288 E141.45207
G1 X55.176 Y125.869 E141.48152
G1 X55.115 Y125.844 E141.48331
G1 X54.071 Y125.708 E141.51201
G1 X54.003 Y125.697 E141.51388
G1 X52.898 Y125.841 E141.54425
G0 F10500 X52.846 Y125.444
G0 X54.142 Y125.212
G0 X56.424 Y125.854
G0 X58.208 Y127.703
G0 X59.228 Y128.556
G0 X59.545 Y128.799
G1 F480 X59.508 Y128.845 E141.54586
G1 X59.303 Y129.343 E141.56053
G1 X59.278 Y129.397 E141.56216
G1 X59.205 Y129.944 E141.57719
G1 X59.197 Y129.999 E141.57871
G1 X59.277 Y130.595 E141.59510
G1 X59.499 Y131.137 E141.61106
G1 X59.871 Y131.628 E141.62785
G1 X60.306 Y131.961 E141.64277
G1 X60.345 Y131.993 E141.64415
G1 X60.856 Y132.203 E141.65920
G1 X60.898 Y132.222 E141.66046
G1 X61.500 Y132.303 E141.67701
G1 X62.096 Y132.223 E141.69340
G1 X62.637 Y132.001 E141.70934
G1 X63.128 Y131.629 E141.72612
G1 X63.495 Y131.151 E141.74255
G1 X63.704 Y130.644 E141.75749
G1 X63.723 Y130.601 E141.75877
G1 X63.803 Y130.000 E141.77529
G1 X63.724 Y129.404 E141.79168
G1 X63.495 Y128.849 E141.80804
G1 X63.129 Y128.371 E141.82445
G1 X62.651 Y128.005 E141.84085
G1 X62.096 Y127.776 E141.85721
G1 X61.556 Y127.705 E141.87206
G1 X61.502 Y127.697 E141.87354
G1 X60.905 Y127.776 E141.88995
G1 X60.363 Y127.998 E141.90591
G1 X59.872 Y128.371 E141.92272
G1 X59.545 Y128.799 E141.93740
G0 F10500 X59.437 Y128.593
;TYPE:SKIN
G1 F480 X55.406 Y124.561 E142.09277
G0 F10500 X55.861 Y124.167
G1 F480 X59.830 Y128.136 E142.24573
G0 F10500 X60.326 Y127.784
G1 F480 X56.212 Y123.670 E142.40428
G0 F10500 X56.441 Y123.050
G1 F480 X60.948 Y127.557 E142.57797
G0 F10500 X61.758 Y127.519
G1 F480 X56.480 Y122.241 E142.78138
G0 F10500 X56.669 Y122.218
G0 X57.839 Y120.447
G0 X57.902 Y120.268
G1 F480 X63.730 Y126.096 E143.00599
G0 F10500 X64.135 Y127.351
G1 F480 X56.647 Y119.862 E143.29459
G0 F10500 X55.577 Y119.641
G1 F480 X64.355 Y128.419 E143.63289
G0 F10500 X64.458 Y129.370
G1 F480 X54.627 Y119.539 E144.01176
G0 F10500 X54.258 Y120.019
G1 F480 X53.599 Y119.783 E144.03138
G1 X52.863 Y119.897 E144.05245
G1 X52.052 Y119.510 E144.07694
G0 F10500 X51.205 Y119.511
G1 F480 X52.330 Y120.637 E144.12032
G0 F10500 X51.937 Y121.092
G1 F480 X50.356 Y119.511 E144.18125
G0 F10500 X49.508 Y119.511
G1 F480 X51.652 Y121.656 E144.26390
G0 F10500 X51.504 Y122.356
G1 F480 X48.660 Y119.512 E144.37350
G0 F10500 X47.811 Y119.512
G1 F480 X51.658 Y123.359 E144.52176
G0 F10500 X51.483 Y123.431
G0 X52.500 Y124.855
G0 X53.066 Y125.015
G0 X53.139 Y124.839
G1 F480 X53.976 Y125.252 E144.54758
G1 X54.728 Y125.580 E144.56993
G0 F10500 X54.843 Y124.847
G1 F480 X55.971 Y125.974 E144.61339
G0 F10500 X56.043 Y125.801
G0 X57.473 Y126.697
G0 X58.208 Y127.963
G0 X58.032 Y128.035
G1 F480 X59.152 Y129.155 E144.65655
G0 F10500 X59.004 Y129.856
G1 F480 X58.454 Y129.730 E144.67908
G1 X59.158 Y130.859 E144.71534
G0 F10500 X58.390 Y130.939
G1 F480 X64.488 Y137.037 E144.95035
G0 F10500 X64.488 Y137.885
G1 F480 X58.187 Y131.585 E145.19316
G0 F10500 X57.939 Y132.185
G1 F480 X64.400 Y138.646 E145.44216
G0 F10500 X64.150 Y139.244
G1 F480 X57.586 Y132.680 E145.69513
G0 F10500 X57.217 Y133.160
G1 F480 X63.782 Y139.725 E145.94814
G0 F10500 X63.632 Y139.609
G0 X64.299 Y136.188
G0 X64.488 Y136.188
G1 F480 X60.639 Y132.339 E146.09648
G0 F10500 X61.643 Y132.495
G1 F480 X64.488 Y135.340 E146.20612
G0 F10500 X64.488 Y134.491
G1 F480 X62.344 Y132.347 E146.28875
G0 F10500 X62.906 Y132.061
G1 F480 X64.488 Y133.643 E146.34972
G0 F10500 X64.488 Y132.794
G1 F480 X63.361 Y131.668 E146.39314
G0 F10500 X63.712 Y131.170
G1 F480 X64.488 Y131.521 E146.42304
G1 X64.214 Y130.400 E146.44405
G1 X63.980 Y129.741 E146.46311
G0 F10500 X64.169 Y129.718
G0 X62.657 Y124.436
G0 X62.820 Y124.339
G1 F480 X59.651 Y121.169 E146.58526
G0 F10500 X59.552 Y121.332
G0 X55.386 Y124.936
G0 X54.000 Y125.305
G0 X53.035 Y125.419
G0 X53.059 Y125.608
G1 F480 X46.963 Y119.512 E146.82020
G0 F10500 X46.114 Y119.512
G1 F480 X52.414 Y125.811 E147.06297
G0 F10500 X51.811 Y126.058
G1 F480 X45.353 Y119.600 E147.31186
G0 F10500 X44.754 Y119.848
G1 F480 X51.318 Y126.413 E147.56485
G0 F10500 X50.838 Y126.782
G1 F480 X44.274 Y120.217 E147.81784
G0 F10500 X43.898 Y120.690
G1 F480 X50.465 Y127.257 E148.07093
G0 F10500 X50.096 Y127.736
G1 F480 X43.632 Y121.273 E148.32002
G0 F10500 X43.512 Y122.001
G1 F480 X49.846 Y128.335 E148.56413
G0 F10500 X49.624 Y128.962
G1 F480 X43.509 Y122.847 E148.79980
G0 F10500 X43.509 Y123.695
G1 F480 X49.525 Y129.711 E149.03165
G0 F10500 X49.565 Y130.599
G1 F480 X43.510 Y124.544 E149.26500
G0 F10500 X43.510 Y125.393
G1 F480 X49.891 Y131.774 E149.51092
G0 F10500 X49.715 Y131.846
G0 X50.601 Y133.395
G0 X52.150 Y134.282
G0 X52.224 Y134.107
G1 F480 X58.603 Y140.486 E149.75676
G0 F10500 X57.755 Y140.486
G1 F480 X43.511 Y126.242 E150.30571
G0 F10500 X43.511 Y127.091
G1 F480 X56.907 Y140.487 E150.82198
G0 F10500 X56.058 Y140.487
G1 F480 X43.511 Y127.939 E151.30555
G0 F10500 X43.511 Y128.788
G1 F480 X55.210 Y140.487 E151.75642
G0 F10500 X54.361 Y140.487
G1 F480 X43.511 Y129.637 E152.17457
G0 F10500 X43.512 Y130.486
G1 F480 X53.513 Y140.487 E152.56000
G0 F10500 X52.665 Y140.487
G1 F480 X43.512 Y131.335 E152.91273
G0 F10500 X43.513 Y132.184
G1 F480 X51.816 Y140.487 E153.23272
G0 F10500 X50.968 Y140.487
G1 F480 X43.513 Y133.032 E153.52003
G0 F10500 X43.513 Y133.881
G1 F480 X50.119 Y140.487 E153.77462
G0 F10500 X49.271 Y140.487
G1 F480 X43.513 Y134.730 E153.99651
G0 F10500 X43.513 Y135.579
G1 F480 X48.422 Y140.487 E154.18567
G0 F10500 X47.506 Y140.420
G1 F480 X43.578 Y136.492 E154.33706
G0 F10500 X43.858 Y137.620
G1 F480 X46.378 Y140.140 E154.43417
G0 F10500 X46.450 Y139.967
G0 X53.374 Y134.622
G0 X53.399 Y134.433
G1 F480 X59.452 Y140.486 E154.66745
G0 F10500 X60.300 Y140.486
G1 F480 X54.290 Y134.476 E154.89907
G0 F10500 X55.038 Y134.375
G1 F480 X61.149 Y140.486 E155.13458
G0 F10500 X61.997 Y140.485
G1 F480 X55.665 Y134.154 E155.37859
G0 F10500 X56.263 Y133.903
G1 F480 X62.724 Y140.364 E155.62760
G0 F10500 X63.308 Y140.100
G1 F480 X56.744 Y133.536 E155.88057
G0 F10500 X57.529 Y134.561
G1 F240 E153.88057
G1 Z0.400
G0 F10500 X69.305 Y136.018
;TYPE:WALL-OUTER
G1 Z0.300
G1 F240 E155.88057
G1 F480 X69.300 Y122.016 E156.26214
G1 X69.394 Y121.303 E156.28174
G1 X69.663 Y120.653 E156.30091
G1 X70.094 Y120.091 E156.32021
G1 X70.653 Y119.662 E156.33941
G1 X71.304 Y119.394 E156.35860
G1 X71.995 Y119.303 E156.37759
G1 X79.791 Y119.300 E156.59004
G1 X80.012 Y119.301 E156.59606
G1 X81.050 Y119.351 E156.62438
G1 X82.064 Y119.502 E156.65232
G1 X83.075 Y119.752 E156.68070
G1 X84.082 Y120.110 E156.70982
G1 X85.045 Y120.563 E156.73883
G1 X85.921 Y121.088 E156.76666
G1 X86.760 Y121.708 E156.79509
G1 X87.571 Y122.439 E156.82484
G1 X88.253 Y123.191 E156.85251
G1 X88.876 Y124.026 E156.88090
G1 X89.421 Y124.932 E156.90971
G1 X89.874 Y125.882 E156.93839
G1 X90.228 Y126.863 E156.96681
G1 X90.486 Y127.884 E156.99551
G1 X90.648 Y128.951 E157.02492
G1 X90.698 Y129.987 E157.05318
G1 X90.700 Y137.789 E157.26580
G1 X90.698 Y138.001 E157.27158
G1 X90.605 Y138.698 E157.29074
G1 X90.337 Y139.347 E157.30987
G1 X89.907 Y139.907 E157.32911
G1 X89.347 Y140.337 E157.34835
G1 X88.696 Y140.605 E157.36754
G1 X88.005 Y140.697 E157.38654
G1 X74.016 Y140.700 E157.76775
G1 X72.787 Y140.538 E157.80154
G1 X71.682 Y140.080 E157.83413
G1 X70.679 Y139.321 E157.86841
G1 X69.932 Y138.348 E157.90184
G1 X69.462 Y137.213 E157.93531
G1 X69.305 Y136.018 E157.96816
G0 F10500 X69.705 Y135.984
G0 X75.954 Y132.389
G0 X76.272 Y132.148
G1 F480 X76.956 Y133.040 E157.99879
G1 X77.847 Y133.725 E158.02942
G1 X78.886 Y134.154 E158.06005
G1 X80.000 Y134.303 E158.09068
G1 X81.122 Y134.152 E158.12153
G1 X82.102 Y133.747 E158.15043
G1 X82.162 Y133.720 E158.15222
G1 X83.001 Y133.074 E158.18108
G1 X83.051 Y133.032 E158.18286
G1 X83.698 Y132.189 E158.21182
G1 X83.733 Y132.134 E158.21359
G1 X84.135 Y131.163 E158.24223
G1 X84.157 Y131.101 E158.24402
G1 X84.295 Y130.059 E158.27267
G1 X84.302 Y129.994 E158.27445
G1 X84.163 Y128.939 E158.30345
G1 X84.151 Y128.875 E158.30522
G1 X83.749 Y127.902 E158.33391
G1 X83.722 Y127.842 E158.33571
G1 X83.079 Y127.005 E158.36447
G1 X83.039 Y126.954 E158.36623
G1 X82.172 Y126.288 E158.39603
G1 X81.114 Y125.844 E158.42730
G1 X80.071 Y125.708 E158.45596
G1 X80.003 Y125.697 E158.45784
G1 X78.898 Y125.841 E158.48820
G1 X77.855 Y126.269 E158.51893
G1 X76.973 Y126.945 E158.54921
G1 X76.282 Y127.837 E158.57996
G1 X75.848 Y128.877 E158.61067
G1 X75.711 Y129.910 E158.63907
G1 X75.696 Y129.989 E158.64126
G1 X75.844 Y131.109 E158.67204
G1 X76.272 Y132.148 E158.70267
G0 F10500 X75.954 Y132.389
G0 X75.358 Y131.238
G0 X75.363 Y128.746
G0 X76.618 Y126.589
G0 X78.770 Y125.355
G0 X79.197 Y125.070
G0 X79.356 Y124.703
G1 F480 X79.398 Y124.722 E158.70392
G1 X80.000 Y124.803 E158.72048
G1 X80.595 Y124.723 E158.73684
G1 X81.137 Y124.501 E158.75280
G1 X81.627 Y124.129 E158.76956
G1 X81.994 Y123.651 E158.78598
G1 X82.203 Y123.144 E158.80093
G1 X82.222 Y123.102 E158.80219
G1 X82.303 Y122.500 E158.81874
G1 X82.223 Y121.904 E158.83513
G1 X81.994 Y121.349 E158.85149
G1 X81.628 Y120.871 E158.86789
G1 X81.151 Y120.505 E158.88428
G1 X80.595 Y120.276 E158.90066
G1 X80.056 Y120.205 E158.91548
G1 X80.002 Y120.197 E158.91697
G1 X79.405 Y120.276 E158.93338
G1 X78.863 Y120.498 E158.94934
G1 X78.372 Y120.871 E158.96614
G1 X78.045 Y121.299 E158.98082
G1 X78.008 Y121.345 E158.98243
G1 X77.803 Y121.843 E158.99711
G1 X77.778 Y121.897 E158.99873
G1 X77.705 Y122.444 E159.01377
G1 X77.697 Y122.499 E159.01528
G1 X77.777 Y123.095 E159.03167
G1 X77.999 Y123.637 E159.04763
G1 X78.371 Y124.128 E159.06442
G1 X78.806 Y124.461 E159.07934
G1 X78.845 Y124.493 E159.08072
G1 X79.356 Y124.703 E159.09577
G0 F10500 X79.197 Y125.070
G0 X81.368 Y125.409
G0 X83.472 Y126.697
G0 X85.227 Y128.556
G0 X85.544 Y128.799
G1 F480 X85.507 Y128.845 E159.09738
G1 X85.302 Y129.343 E159.11206
G1 X85.276 Y129.398 E159.11372
G1 X85.205 Y129.944 E159.12872
G1 X85.197 Y129.998 E159.13021
G1 X85.276 Y130.595 E159.14662
G1 X85.498 Y131.137 E159.16258
G1 X85.871 Y131.628 E159.17938
G1 X86.299 Y131.955 E159.19406
G1 X86.345 Y131.992 E159.19567
G1 X86.843 Y132.197 E159.21035
G1 X86.897 Y132.222 E159.21197
G1 X87.500 Y132.303 E159.22855
G1 X88.095 Y132.223 E159.24491
G1 X88.637 Y132.001 E159.26087
G1 X89.127 Y131.629 E159.27764
G1 X89.494 Y131.151 E159.29406
G1 X89.703 Y130.644 E159.30900
G1 X89.722 Y130.602 E159.31026
G1 X89.803 Y130.000 E159.32681
G1 X89.723 Y129.404 E159.34320
G1 X89.494 Y128.849 E159.35956
G1 X89.128 Y128.371 E159.37597
G1 X88.651 Y128.005 E159.39235
G1 X88.095 Y127.776 E159.40874
G1 X87.556 Y127.705 E159.42355
G1 X87.502 Y127.697 E159.42504
G1 X86.904 Y127.776 E159.44148
G1 X86.363 Y127.998 E159.45742
G1 X85.871 Y128.370 E159.47422
G1 X85.544 Y128.799 E159.48892
G0 F10500 X85.241 Y128.940
;TYPE:SKIN
G1 F480 X83.469 Y127.168 E159.55721
G0 F10500 X82.820 Y126.519
G1 F480 X81.060 Y124.759 E159.62504
G0 F10500 X81.578 Y124.429
G1 F480 X85.569 Y128.419 E159.77883
G0 F10500 X86.003 Y128.005
G1 F480 X81.993 Y123.995 E159.93338
G0 F10500 X82.300 Y123.454
G1 F480 X86.542 Y127.695 E160.09684
G0 F10500 X87.216 Y127.521
G1 F480 X82.476 Y122.782 E160.27950
G0 F10500 X82.431 Y121.888
G1 F480 X88.109 Y127.565 E160.49830
G0 F10500 X88.134 Y127.378
G0 X89.847 Y126.986
G0 X90.030 Y126.941
G1 F480 X83.058 Y119.969 E160.76700
G0 F10500 X81.936 Y119.696
G1 F480 X90.300 Y128.059 E161.08932
G0 F10500 X90.443 Y129.051
G1 F480 X80.947 Y119.555 E161.45528
G0 F10500 X80.608 Y120.065
G1 F480 X79.886 Y119.767 E161.47653
G1 X79.123 Y119.853 E161.49620
G1 X78.357 Y119.510 E161.51908
G0 F10500 X77.508 Y119.510
G1 F480 X78.503 Y120.505 E161.55742
G0 F10500 X78.070 Y120.920
G1 F480 X76.660 Y119.511 E161.61174
G0 F10500 X75.812 Y119.511
G1 F480 X77.742 Y121.441 E161.68612
G0 F10500 X77.540 Y122.088
G1 F480 X74.963 Y119.511 E161.78544
G0 F10500 X74.116 Y119.512
G1 F480 X77.544 Y122.941 E161.91757
G0 F10500 X77.356 Y122.965
G0 X78.016 Y124.482
G0 X79.531 Y125.143
G0 X79.558 Y124.954
G1 F480 X80.256 Y125.229 E161.93856
G1 X81.078 Y125.626 E161.96344
G0 F10500 X81.102 Y125.439
G0 X82.424 Y125.855
G0 X84.207 Y127.703
G0 X84.562 Y128.895
G0 X84.372 Y128.920
G1 F480 X84.770 Y129.742 E161.98911
G1 X85.044 Y130.440 E162.00955
G0 F10500 X84.425 Y130.670
G1 F480 X90.487 Y136.732 E162.24317
G0 F10500 X90.487 Y135.884
G1 F480 X87.058 Y132.455 E162.37532
G0 F10500 X87.911 Y132.458
G1 F480 X90.487 Y135.035 E162.47462
G0 F10500 X90.487 Y134.186
G1 F480 X88.560 Y132.259 E162.54888
G0 F10500 X89.078 Y131.929
G1 F480 X90.487 Y133.338 E162.60318
G0 F10500 X90.487 Y132.489
G1 F480 X89.492 Y131.494 E162.64153
G0 F10500 X89.800 Y130.954
G1 F480 X90.487 Y131.216 E162.66798
G1 X90.230 Y130.111 E162.68766
G1 X89.931 Y129.388 E162.70898
G0 F10500 X90.121 Y129.362
G0 X89.307 Y125.622
G0 X89.479 Y125.541
G1 F480 X84.452 Y120.515 E162.90270
G0 F10500 X84.371 Y120.686
G0 X86.794 Y122.277
G0 X86.922 Y122.136
G1 F480 X87.903 Y123.117 E162.94051
G0 F10500 X87.761 Y123.245
G0 X84.793 Y129.259
G0 X84.451 Y131.443
G0 X84.275 Y131.369
G1 F480 X90.487 Y137.581 E163.17991
G0 F10500 X90.436 Y138.377
G1 F480 X84.027 Y131.969 E163.42689
G0 F10500 X83.717 Y132.507
G1 F480 X90.240 Y139.031 E163.67830
G0 F10500 X89.913 Y139.552
G1 F480 X83.348 Y132.987 E163.93131
G0 F10500 X82.916 Y133.403
G1 F480 X89.480 Y139.968 E164.18430
G0 F10500 X88.940 Y140.276
G1 F480 X82.436 Y133.772 E164.43496
G0 F10500 X81.880 Y134.065
G1 F480 X88.265 Y140.449 E164.68101
G0 F10500 X87.453 Y140.486
G1 F480 X81.281 Y134.314 E164.91887
G0 F10500 X80.558 Y134.440
G1 F480 X86.605 Y140.486 E165.15190
G0 F10500 X85.756 Y140.486
G1 F480 X79.751 Y134.481 E165.38333
G0 F10500 X78.742 Y134.321
G1 F480 X84.907 Y140.486 E165.62092
G0 F10500 X84.060 Y140.487
G1 F480 X69.510 Y125.937 E166.18166
G0 F10500 X69.510 Y125.089
G1 F480 X75.678 Y131.257 E166.41937
G0 F10500 X75.519 Y130.249
G1 F480 X69.510 Y124.240 E166.65096
G0 F10500 X69.510 Y123.391
G1 F480 X75.561 Y129.442 E166.88416
G0 F10500 X75.686 Y128.719
G1 F480 X69.510 Y122.543 E167.12217
G0 F10500 X69.548 Y121.732
G1 F480 X75.936 Y128.120 E167.36836
G0 F10500 X76.227 Y127.563
G1 F480 X69.721 Y121.057 E167.61910
G0 F10500 X70.030 Y120.517
G1 F480 X76.598 Y127.086 E167.87224
G0 F10500 X77.010 Y126.649
G1 F480 X70.446 Y120.085 E168.12521
G0 F10500 X70.968 Y119.758
G1 F480 X77.491 Y126.282 E168.37662
G0 F10500 X78.028 Y125.970
G1 F480 X71.621 Y119.563 E168.62354
G0 F10500 X72.419 Y119.512
G1 F480 X78.630 Y125.723 E168.86291
G0 F10500 X79.328 Y125.572
G1 F480 X73.267 Y119.512 E169.09647
G0 F10500 X73.267 Y119.703
G0 X69.702 Y126.787
G0 X69.511 Y126.787
G1 F480 X83.211 Y140.487 E169.62446
G0 F10500 X82.363 Y140.487
G1 F480 X69.511 Y127.635 E170.11976
G0 F10500 X69.512 Y128.484
G1 F480 X81.514 Y140.487 E170.58233
G0 F10500 X80.666 Y140.487
G1 F480 X69.512 Y129.333 E171.01219
G0 F10500 X69.512 Y130.182
G1 F480 X79.818 Y140.487 E171.40936
G0 F10500 X78.969 Y140.487
G1 F480 X69.512 Y131.031 E171.77380
G0 F10500 X69.512 Y131.879
G1 F480 X78.121 Y140.487 E172.10557
G0 F10500 X77.273 Y140.488
G1 F480 X69.513 Y132.728 E172.40463
G0 F10500 X69.513 Y133.577
G1 F480 X76.424 Y140.488 E172.67098
G0 F10500 X75.576 Y140.488
G1 F480 X69.514 Y134.426 E172.90460
G0 F10500 X69.514 Y135.275
G1 F480 X74.727 Y140.488 E173.10550
G0 F10500 X73.857 Y140.466
G1 F480 X69.532 Y136.142 E173.27217
G0 F10500 X69.661 Y137.119
G1 F480 X72.880 Y140.338 E173.39622
G0 F10500 X72.905 Y140.150
G0 X71.087 Y139.130
G0 X70.973 Y139.280
G1 F480 X70.711 Y139.017 E173.40634
G0 F10500 X71.736 Y138.234
G1 F240 E171.40634
G1 Z0.400
G0 F10500 X95.305 Y136.018
;TYPE:WALL-OUTER
G1 Z0.300
G1 F240 E173.40634
G1 F480 X95.300 Y122.016 E173.78791
G1 X95.393 Y121.303 E173.80751
G1 X95.662 Y120.653 E173.82668
G1 X96.092 Y120.092 E173.84594
G1 X96.652 Y119.663 E173.86516
G1 X97.304 Y119.393 E173.88439
G1 X97.995 Y119.303 E173.90338
G1 X105.791 Y119.300 E174.11584
G1 X106.012 Y119.301 E174.12186
G1 X107.050 Y119.351 E174.15018
G1 X108.064 Y119.502 E174.17812
G1 X109.075 Y119.752 E174.20650
G1 X110.082 Y120.110 E174.23562
G1 X111.045 Y120.563 E174.26462
G1 X111.921 Y121.088 E174.29245
G1 X112.760 Y121.708 E174.32088
G1 X113.571 Y122.439 E174.35064
G1 X114.253 Y123.191 E174.37830
G1 X114.876 Y124.026 E174.40669
G1 X115.421 Y124.932 E174.43550
G1 X115.874 Y125.882 E174.46419
G1 X116.228 Y126.863 E174.49261
G1 X116.486 Y127.884 E174.52130
G1 X116.648 Y128.951 E174.55071
G1 X116.698 Y129.987 E174.57898
G1 X116.700 Y137.789 E174.79159
G1 X116.698 Y138.001 E174.79737
G1 X116.605 Y138.698 E174.81653
G1 X116.337 Y139.347 E174.83567
G1 X115.907 Y139.907 E174.85491
G1 X115.347 Y140.337 E174.87415
G1 X114.696 Y140.605 E174.89334
G1 X114.005 Y140.697 E174.91233
G1 X100.016 Y140.700 E175.29355
G1 X98.786 Y140.538 E175.32736
G1 X97.682 Y140.080 E175.35993
G1 X96.678 Y139.321 E175.39423
G1 X95.931 Y138.348 E175.42766
G1 X95.461 Y137.213 E175.46113
G1 X95.305 Y136.018 E175.49398
G0 F10500 X95.705 Y135.984
G0 X101.953 Y132.389
G0 X102.271 Y132.148
G1 F480 X102.955 Y133.040 E175.52461
G1 X103.847 Y133.725 E175.55526
G1 X104.885 Y134.154 E175.58586
G1 X106.000 Y134.303 E175.61652
G1 X107.122 Y134.152 E175.64737
G1 X108.102 Y133.747 E175.67627
G1 X108.162 Y133.720 E175.67806
G1 X109.001 Y133.074 E175.70692
G1 X109.051 Y133.032 E175.70870
G1 X109.698 Y132.189 E175.73766
G1 X109.733 Y132.134 E175.73943
G1 X110.135 Y131.163 E175.76807
G1 X110.157 Y131.101 E175.76986
G1 X110.295 Y130.059 E175.79851
G1 X110.302 Y129.994 E175.80029
G1 X110.163 Y128.939 E175.82929
G1 X110.151 Y128.875 E175.83106
G1 X109.749 Y127.902 E175.85975
G1 X109.722 Y127.842 E175.86155
G1 X109.079 Y127.005 E175.89031
G1 X109.039 Y126.954 E175.89207
G1 X108.172 Y126.288 E175.92187
G1 X107.114 Y125.844 E175.95314
G1 X106.071 Y125.708 E175.98180
G1 X106.003 Y125.697 E175.98368
G1 X104.897 Y125.841 E176.01407
G1 X103.855 Y126.269 E176.04477
G1 X102.972 Y126.944 E176.07506
G1 X102.281 Y127.837 E176.10583
G1 X101.847 Y128.877 E176.13654
G1 X101.711 Y129.910 E176.16493
G1 X101.696 Y129.989 E176.16712
G1 X101.843 Y131.109 E176.19790
G1 X102.271 Y132.148 E176.22853
G0 F10500 X101.953 Y132.389
G0 X101.357 Y131.238
G0 X101.362 Y128.747
G0 X102.617 Y126.589
G0 X104.769 Y125.355
G0 X105.180 Y125.063
G0 X105.343 Y124.697
G1 F480 X105.397 Y124.722 E176.23015
G1 X106.000 Y124.803 E176.24673
G1 X106.595 Y124.723 E176.26309
G1 X107.137 Y124.501 E176.27905
G1 X107.627 Y124.129 E176.29582
G1 X107.994 Y123.651 E176.31224
G1 X108.203 Y123.144 E176.32718
G1 X108.222 Y123.102 E176.32844
G1 X108.303 Y122.500 E176.34499
G1 X108.223 Y121.904 E176.36138
G1 X107.994 Y121.349 E176.37774
G1 X107.628 Y120.871 E176.39415
G1 X107.151 Y120.505 E176.41053
G1 X106.595 Y120.276 E176.42692
G1 X106.056 Y120.205 E176.44173
G1 X106.002 Y120.197 E176.44322
G1 X105.404 Y120.276 E176.45966
G1 X104.863 Y120.498 E176.47559
G1 X104.371 Y120.870 E176.49240
G1 X104.044 Y121.299 E176.50710
G1 X104.007 Y121.345 E176.50871
G1 X103.802 Y121.843 E176.52339
G1 X103.776 Y121.898 E176.52505
G1 X103.705 Y122.444 E176.54005
G1 X103.697 Y122.498 E176.54154
G1 X103.776 Y123.095 E176.55795
G1 X103.998 Y123.637 E176.57391
G1 X104.371 Y124.128 E176.59071
G1 X104.799 Y124.455 E176.60539
G1 X104.845 Y124.492 E176.60700
G1 X105.343 Y124.697 E176.62168
G0 F10500 X105.180 Y125.063
G0 X107.368 Y125.409
G0 X109.472 Y126.697
G0 X111.227 Y128.556
G0 X111.544 Y128.799
G1 F480 X111.507 Y128.845 E176.62328
G1 X111.302 Y129.343 E176.63796
G1 X111.276 Y129.398 E176.63962
G1 X111.205 Y129.944 E176.65462
G1 X111.197 Y129.998 E176.65611
G1 X111.276 Y130.595 E176.67252
G1 X111.498 Y131.137 E176.68848
G1 X111.871 Y131.628 E176.70529
G1 X112.299 Y131.955 E176.71996
G1 X112.345 Y131.992 E176.72157
G1 X112.843 Y132.197 E176.73625
G1 X112.897 Y132.222 E176.73787
G1 X113.500 Y132.303 E176.75445
G1 X114.095 Y132.223 E176.77081
G1 X114.637 Y132.001 E176.78677
G1 X115.127 Y131.629 E176.80354
G1 X115.494 Y131.151 E176.81996
G1 X115.703 Y130.644 E176.83490
G1 X115.722 Y130.602 E176.83616
G1 X115.803 Y130.000 E176.85271
G1 X115.723 Y129.404 E176.86910
G1 X115.494 Y128.849 E176.88546
G1 X115.128 Y128.371 E176.90187
G1 X114.651 Y128.005 E176.91825
